; generated by Slic3r 1.2.9 on 2018-10-29 at 19:20:23

; external perimeters extrusion width = 0.50mm
; perimeters extrusion width = 0.58mm
; infill extrusion width = 0.58mm
; solid infill extrusion width = 0.58mm
; top infill extrusion width = 0.58mm

G28 ; home all axes
G1 Z5 F5000 ; lift nozzle

G21 ; set units to millimeters
G90 ; use absolute coordinates
M82 ; use absolute distances for extrusion
G92 E0
G1 Z0.300 F7800.000
G1 E-2.00000 F2400.00000
G92 E0
G1 X82.928 Y66.633 F7800.000
G1 E2.00000 F2400.00000
G1 X84.231 Y65.376 E2.04117 F1800.000
G1 X85.731 Y64.286 E2.08332
G1 X87.779 Y63.289 E2.13510
G1 X89.573 Y63.038 E2.17627
G1 X154.427 Y63.038 E3.65056
G1 X156.605 Y63.411 E3.70079
G1 X164.678 Y66.264 E3.89543 F1800.000
G1 X166.660 Y67.386 E3.94721
G1 X168.137 Y69.120 E3.99899
G1 X168.930 Y71.256 E4.05077
G1 X169.036 Y72.427 E4.07750
G1 X169.036 Y171.927 E6.33937
G1 X168.639 Y174.170 E6.39115
G1 X167.121 Y176.548 E6.45528
G1 X158.621 Y185.048 E6.72854
G1 X156.755 Y186.353 E6.78033
G1 X154.000 Y186.962 E6.84446
G1 X90.500 Y186.962 E8.28796
G1 X88.257 Y186.565 E8.33974
G1 X86.287 Y185.423 E8.39153
G1 X84.828 Y183.673 E8.44331
G1 X84.304 Y182.505 E8.47242
G1 X81.877 Y175.268 E8.64594
G1 X81.284 Y173.446 E8.68947
G1 X80.964 Y171.427 E8.73596
G1 X80.964 Y72.427 E10.98647
G1 X81.284 Y70.407 E11.03295
G1 X81.857 Y68.644 E11.07510
G1 X82.893 Y66.699 E11.12518
G1 E9.12518 F2400.00000
G92 E0
G1 X92.216 Y170.180 F7800.000
G1 E2.00000 F2400.00000
G1 X92.621 Y171.427 E2.02980 F1800.000
G1 X92.216 Y172.673 E2.05959
G1 X91.156 Y173.444 E2.08940
G1 X89.844 Y173.444 E2.11920
G1 X88.784 Y172.673 E2.14901
G1 X88.379 Y171.427 E2.17881
G1 X88.784 Y170.180 E2.20860
G1 X89.844 Y169.409 E2.23841
G1 X91.156 Y169.409 E2.26821
G1 X92.156 Y170.136 E2.29632
G1 X92.531 Y169.747 F7800.000
G1 X92.672 Y169.849 E2.30027 F1800.000
G1 X93.250 Y171.627 E2.34276 F1800.000
G1 X93.120 Y171.627 E2.34572
G1 X92.672 Y173.004 E2.37864
G1 X91.330 Y173.980 E2.41636
G1 X89.670 Y173.980 E2.45408
G1 X88.328 Y173.004 E2.49180
G1 X87.815 Y171.427 E2.52951
G1 X88.328 Y169.849 E2.56722
G1 X89.670 Y168.874 E2.60494
G1 X91.330 Y168.874 E2.64265
G1 X92.470 Y169.703 E2.67471
G1 X92.513 Y169.920 F7800.000
G1 X93.581 Y171.677 F7800.000
G1 X96.419 Y171.677 E2.73921 F1800.000
G1 X99.750 Y174.280 F7800.000
G1 X99.750 Y180.427 E2.87895 F1800.000
G1 E0.87895 F2400.00000
G92 E0
G1 X90.750 Y180.427 F7800.000
G1 E2.00000 F2400.00000
G1 X90.750 Y174.280 E2.13974 F1800.000
G1 X90.750 Y168.574 F7800.000
G1 X90.750 Y165.280 E2.21462 F1800.000
G1 X93.581 Y162.677 F7800.000
G1 X96.419 Y162.677 E2.27912 F1800.000
G1 E0.27912 F2400.00000
G92 E0
G1 X91.156 Y164.444 F7800.000
G1 E2.00000 F2400.00000
G1 X89.844 Y164.444 E2.02980 F1800.000
G1 X88.784 Y163.673 E2.05961
G1 X88.379 Y162.427 E2.08941
G1 X88.784 Y161.180 E2.11921
G1 X89.844 Y160.409 E2.14902
G1 X91.156 Y160.409 E2.17882
G1 X92.216 Y161.180 E2.20862
G1 X92.621 Y162.427 E2.23843 F1800.000
G1 X92.216 Y163.673 E2.26823
G1 X91.216 Y164.400 E2.29633
G1 X91.156 Y164.980 F7800.000
G1 X89.670 Y164.980 E2.33009 F1800.000
G1 X88.328 Y164.004 E2.36781
G1 X87.815 Y162.427 E2.40552
G1 X88.328 Y160.849 E2.44323
G1 X89.670 Y159.873 E2.48095
G1 X91.330 Y159.873 E2.51867
G1 X92.672 Y160.849 E2.55638
G1 X93.250 Y162.627 E2.59888 F1800.000
G1 X93.120 Y162.627 E2.60184
G1 X92.672 Y164.004 E2.63476
G1 X91.330 Y164.980 E2.67248
G1 X91.231 Y164.980 E2.67473
G1 X90.906 Y164.547 F7800.000
G1 X90.750 Y159.573 F7800.000
G1 X90.750 Y156.280 E2.74961 F1800.000
G1 X93.581 Y153.677 F7800.000
G1 X96.419 Y153.677 E2.81411 F1800.000
G1 E0.81411 F2400.00000
G92 E0
G1 X91.156 Y155.444 F7800.000
G1 E2.00000 F2400.00000
G1 X89.844 Y155.444 E2.02980 F1800.000
G1 X88.784 Y154.674 E2.05961
G1 X88.379 Y153.427 E2.08941
G1 X88.784 Y152.180 E2.11922
G1 X89.844 Y151.409 E2.14902
G1 X91.156 Y151.409 E2.17883
G1 X92.216 Y152.180 E2.20863
G1 X92.621 Y153.426 E2.23843 F1800.000
G1 X92.216 Y154.674 E2.26824
G1 X91.216 Y155.400 E2.29634
G1 X91.156 Y155.980 F7800.000
G1 X89.670 Y155.980 E2.33010 F1800.000
G1 X88.328 Y155.005 E2.36782
G1 X87.815 Y153.427 E2.40553
G1 X88.328 Y151.849 E2.44325
G1 X89.670 Y150.873 E2.48097
G1 X91.330 Y150.873 E2.51868
G1 X92.672 Y151.849 E2.55640
G1 X93.250 Y153.627 E2.59890 F1800.000
G1 X93.120 Y153.627 E2.60185
G1 X92.672 Y155.005 E2.63479
G1 X91.330 Y155.980 E2.67251
G1 X91.231 Y155.980 E2.67476
G1 X90.906 Y155.547 F7800.000
G1 X90.750 Y150.573 F7800.000
G1 X90.750 Y147.280 E2.74963 F1800.000
G1 X93.581 Y144.677 F7800.000
G1 X96.419 Y144.677 E2.81413 F1800.000
G1 E0.81413 F2400.00000
G92 E0
G1 X91.156 Y146.444 F7800.000
G1 E2.00000 F2400.00000
G1 X89.844 Y146.444 E2.02980 F1800.000
G1 X88.784 Y145.674 E2.05961
G1 X88.379 Y144.427 E2.08941
G1 X88.784 Y143.180 E2.11922
G1 X89.844 Y142.409 E2.14902
G1 X91.156 Y142.409 E2.17883
G1 X92.216 Y143.180 E2.20863
G1 X92.621 Y144.426 E2.23843 F1800.000
G1 X92.216 Y145.674 E2.26824
G1 X91.216 Y146.400 E2.29634
G1 X91.156 Y146.980 F7800.000
G1 X89.670 Y146.980 E2.33010 F1800.000
G1 X88.328 Y146.005 E2.36782
G1 X87.815 Y144.427 E2.40553
G1 X88.328 Y142.849 E2.44325
G1 X89.670 Y141.873 E2.48097
G1 X91.330 Y141.873 E2.51868
G1 X92.672 Y142.849 E2.55640
G1 X93.250 Y144.627 E2.59890 F1800.000
G1 X93.120 Y144.627 E2.60185
G1 X92.672 Y146.005 E2.63479
G1 X91.330 Y146.980 E2.67251
G1 X91.231 Y146.980 E2.67476
G1 X90.906 Y146.547 F7800.000
G1 X90.750 Y141.573 F7800.000
G1 X90.750 Y138.280 E2.74963 F1800.000
G1 X93.581 Y135.677 F7800.000
G1 X96.419 Y135.677 E2.81413 F1800.000
G1 E0.81413 F2400.00000
G92 E0
G1 X91.156 Y137.444 F7800.000
G1 E2.00000 F2400.00000
G1 X89.844 Y137.444 E2.02980 F1800.000
G1 X88.784 Y136.674 E2.05961
G1 X88.379 Y135.427 E2.08941
G1 X88.784 Y134.180 E2.11922
G1 X89.844 Y133.409 E2.14902
G1 X91.156 Y133.409 E2.17883
G1 X92.216 Y134.180 E2.20863
G1 X92.621 Y135.426 E2.23843 F1800.000
G1 X92.216 Y136.674 E2.26824
G1 X91.216 Y137.400 E2.29634
G1 X91.156 Y137.980 F7800.000
G1 X89.670 Y137.980 E2.33010 F1800.000
G1 X88.328 Y137.005 E2.36782
G1 X87.815 Y135.427 E2.40553
G1 X88.328 Y133.849 E2.44325
G1 X89.670 Y132.873 E2.48097
G1 X91.330 Y132.873 E2.51868
G1 X92.672 Y133.849 E2.55640
G1 X93.250 Y135.627 E2.59890 F1800.000
G1 X93.120 Y135.627 E2.60185
G1 X92.672 Y137.005 E2.63479
G1 X91.330 Y137.980 E2.67251
G1 X91.231 Y137.980 E2.67476
G1 X90.906 Y137.547 F7800.000
G1 X90.750 Y132.573 F7800.000
G1 X90.750 Y129.280 E2.74963 F1800.000
G1 X93.581 Y126.677 F7800.000
G1 X96.419 Y126.677 E2.81413 F1800.000
G1 E0.81413 F2400.00000
G92 E0
G1 X91.156 Y128.444 F7800.000
G1 E2.00000 F2400.00000
G1 X89.844 Y128.444 E2.02980 F1800.000
G1 X88.784 Y127.674 E2.05961
G1 X88.379 Y126.427 E2.08941
G1 X88.784 Y125.180 E2.11922
G1 X89.844 Y124.409 E2.14902
G1 X91.156 Y124.409 E2.17883
G1 X92.216 Y125.180 E2.20863
G1 X92.621 Y126.426 E2.23843 F1800.000
G1 X92.216 Y127.674 E2.26824
G1 X91.216 Y128.400 E2.29634
G1 X91.156 Y128.980 F7800.000
G1 X89.670 Y128.980 E2.33010 F1800.000
G1 X88.328 Y128.005 E2.36782
G1 X87.815 Y126.427 E2.40553
G1 X88.328 Y124.849 E2.44325
G1 X89.670 Y123.873 E2.48097
G1 X91.330 Y123.873 E2.51868
G1 X92.672 Y124.849 E2.55640
G1 X93.250 Y126.627 E2.59890 F1800.000
G1 X93.120 Y126.627 E2.60185
G1 X92.672 Y128.005 E2.63479
G1 X91.330 Y128.980 E2.67251
G1 X91.231 Y128.980 E2.67476
G1 X90.906 Y128.547 F7800.000
G1 X90.750 Y123.573 F7800.000
G1 X90.750 Y120.280 E2.74963 F1800.000
G1 X93.581 Y117.677 F7800.000
G1 X96.419 Y117.677 E2.81413 F1800.000
G1 X99.750 Y120.280 F7800.000
G1 X99.750 Y123.573 E2.88900 F1800.000
G1 X97.535 Y126.907 F7800.000
G1 X97.379 Y126.426 E2.90050 F1800.000
G1 X97.784 Y125.180 E2.93030
G1 X98.844 Y124.409 E2.96011
G1 X100.156 Y124.409 E2.98991
G1 X101.216 Y125.180 E3.01972
G1 X101.621 Y126.426 E3.04952 F1800.000
G1 X101.216 Y127.674 E3.07933
G1 X100.156 Y128.444 E3.10913
G1 X98.844 Y128.444 E3.13894
G1 X97.784 Y127.674 E3.16874
G1 X97.558 Y126.979 E3.18535
G1 X97.025 Y127.073 F7800.000
G1 X96.880 Y126.627 E3.19601 F1800.000
G1 X96.750 Y126.627 E3.19897
G1 X97.328 Y124.849 E3.24147
G1 X98.670 Y123.873 E3.27918
G1 X100.330 Y123.873 E3.31690
G1 X101.672 Y124.849 E3.35462
G1 X102.250 Y126.627 E3.39712 F1800.000
G1 X102.120 Y126.627 E3.40007
G1 X101.672 Y128.005 E3.43301
G1 X100.330 Y128.980 E3.47072
G1 X98.670 Y128.980 E3.50844
G1 X97.328 Y128.005 E3.54616
G1 X97.049 Y127.144 E3.56672
G1 X97.340 Y126.724 F7800.000
G1 X102.581 Y126.677 F7800.000
G1 X105.419 Y126.677 E3.63123 F1800.000
G1 X108.750 Y129.280 F7800.000
G1 X108.750 Y132.573 E3.70610 F1800.000
G1 X106.784 Y134.180 F7800.000
G1 X107.844 Y133.409 E3.73590 F1800.000
G1 X109.156 Y133.409 E3.76571
G1 X110.216 Y134.180 E3.79551
G1 X110.621 Y135.426 E3.82531 F1800.000
G1 X110.216 Y136.674 E3.85512
G1 X109.156 Y137.444 E3.88492
G1 X107.844 Y137.444 E3.91473
G1 X106.784 Y136.674 E3.94453
G1 X106.379 Y135.426 E3.97434
G1 X106.761 Y134.251 E4.00244
G1 X106.469 Y133.746 F7800.000
G1 X107.670 Y132.873 E4.03620 F1800.000
G1 X109.330 Y132.873 E4.07392
G1 X110.672 Y133.849 E4.11163
G1 X111.250 Y135.627 E4.15413 F1800.000
G1 X111.120 Y135.627 E4.15709
G1 X110.672 Y137.005 E4.19002
G1 X109.330 Y137.980 E4.22774
G1 X107.670 Y137.980 E4.26546
G1 X106.328 Y137.005 E4.30317
G1 X105.880 Y135.627 E4.33611
G1 X105.750 Y135.627 E4.33906
G1 X106.328 Y133.849 E4.38156
G1 X106.408 Y133.790 E4.38381
G1 X106.926 Y133.950 F7800.000
G1 X111.581 Y135.677 F7800.000
G1 X114.419 Y135.677 E4.44832 F1800.000
G1 X117.750 Y138.280 F7800.000
G1 X117.750 Y141.573 E4.52319 F1800.000
G1 X115.784 Y143.180 F7800.000
G1 X116.844 Y142.409 E4.55299 F1800.000
G1 X118.156 Y142.409 E4.58280
G1 X119.216 Y143.180 E4.61260
G1 X119.621 Y144.426 E4.64240 F1800.000
G1 X119.216 Y145.674 E4.67221
G1 X118.156 Y146.444 E4.70202
G1 X116.844 Y146.444 E4.73182
G1 X115.784 Y145.674 E4.76162
G1 X115.379 Y144.426 E4.79143
G1 X115.761 Y143.251 E4.81953
G1 X115.274 Y143.014 F7800.000
G1 X115.328 Y142.849 E4.82349 F1800.000
G1 X116.670 Y141.873 E4.86120
G1 X118.330 Y141.873 E4.89892
G1 X119.672 Y142.849 E4.93664
G1 X120.250 Y144.627 E4.97914 F1800.000
G1 X120.120 Y144.627 E4.98209
G1 X119.672 Y146.005 E5.01503
G1 X118.330 Y146.980 E5.05274
G1 X116.670 Y146.980 E5.09046
G1 X115.328 Y146.005 E5.12818
G1 X114.880 Y144.627 E5.16111
G1 X114.750 Y144.627 E5.16407
G1 X115.251 Y143.085 E5.20091
G1 X115.445 Y142.978 F7800.000
G1 X120.581 Y144.677 F7800.000
G1 X123.419 Y144.677 E5.26541 F1800.000
G1 X126.750 Y147.280 F7800.000
G1 X126.750 Y150.573 E5.34028 F1800.000
G1 X124.784 Y152.180 F7800.000
G1 X125.844 Y151.409 E5.37008 F1800.000
G1 X127.156 Y151.409 E5.39989
G1 X128.216 Y152.180 E5.42969
G1 X128.621 Y153.426 E5.45950 F1800.000
G1 X128.216 Y154.674 E5.48930
G1 X127.156 Y155.444 E5.51911
G1 X125.844 Y155.444 E5.54891
G1 X124.784 Y154.674 E5.57872
G1 X124.379 Y153.426 E5.60852
G1 X124.761 Y152.251 E5.63662
G1 X124.469 Y151.746 F7800.000
G1 X125.670 Y150.873 E5.67038 F1800.000
G1 X127.330 Y150.873 E5.70810
G1 X128.672 Y151.849 E5.74582
G1 X129.250 Y153.627 E5.78831 F1800.000
G1 X129.120 Y153.627 E5.79127
G1 X128.672 Y155.005 E5.82421
G1 X127.330 Y155.980 E5.86192
G1 X125.670 Y155.980 E5.89964
G1 X124.328 Y155.005 E5.93736
G1 X123.880 Y153.627 E5.97029
G1 X123.750 Y153.627 E5.97325
G1 X124.328 Y151.849 E6.01575
G1 X124.408 Y151.790 E6.01800
G1 X124.926 Y151.950 F7800.000
G1 X129.581 Y153.677 F7800.000
G1 X132.419 Y153.677 E6.08250 F1800.000
G1 X135.750 Y156.280 F7800.000
G1 X135.750 Y159.573 E6.15737 F1800.000
G1 X133.784 Y161.180 F7800.000
G1 X134.844 Y160.409 E6.18718 F1800.000
G1 X136.156 Y160.409 E6.21698
G1 X137.216 Y161.180 E6.24679
G1 X137.621 Y162.427 E6.27659 F1800.000
G1 X137.216 Y163.673 E6.30639
G1 X136.156 Y164.444 E6.33619
G1 X134.844 Y164.444 E6.36600
G1 X133.784 Y163.673 E6.39580
G1 X133.379 Y162.427 E6.42560
G1 X133.761 Y161.251 E6.45370
G1 X133.469 Y160.746 F7800.000
G1 X134.670 Y159.873 E6.48746 F1800.000
G1 X136.330 Y159.873 E6.52518
G1 X137.672 Y160.849 E6.56290
G1 X138.250 Y162.627 E6.60539 F1800.000
G1 X138.120 Y162.627 E6.60835
G1 X137.672 Y164.004 E6.64128
G1 X136.330 Y164.980 E6.67900
G1 X134.670 Y164.980 E6.71671
G1 X133.328 Y164.004 E6.75443
G1 X132.880 Y162.627 E6.78736
G1 X132.750 Y162.627 E6.79032
G1 X133.328 Y160.849 E6.83281
G1 X133.408 Y160.790 E6.83507
G1 X133.926 Y160.950 F7800.000
G1 X138.581 Y162.677 F7800.000
G1 X141.419 Y162.677 E6.89957 F1800.000
G1 X144.750 Y165.280 F7800.000
G1 X144.750 Y168.574 E6.97445 F1800.000
G1 X142.784 Y170.180 F7800.000
G1 X143.844 Y169.409 E7.00426 F1800.000
G1 X145.156 Y169.409 E7.03406
G1 X146.216 Y170.180 E7.06387
G1 X146.621 Y171.427 E7.09366 F1800.000
G1 X146.216 Y172.673 E7.12346
G1 X145.156 Y173.444 E7.15327
G1 X143.844 Y173.444 E7.18307
G1 X142.784 Y172.673 E7.21288
G1 X142.379 Y171.427 E7.24267
G1 X142.761 Y170.251 E7.27076
G1 X142.469 Y169.747 F7800.000
G1 X143.670 Y168.874 E7.30453 F1800.000
G1 X145.330 Y168.874 E7.34225
G1 X146.672 Y169.849 E7.37996
G1 X147.250 Y171.627 E7.42245 F1800.000
G1 X147.120 Y171.627 E7.42541
G1 X146.672 Y173.004 E7.45834
G1 X145.330 Y173.980 E7.49605
G1 X143.670 Y173.980 E7.53377
G1 X142.328 Y173.004 E7.57149
G1 X141.880 Y171.627 E7.60442
G1 X141.750 Y171.627 E7.60737
G1 X142.328 Y169.849 E7.64986
G1 X142.408 Y169.791 E7.65211
G1 X142.926 Y169.950 F7800.000
G1 X147.581 Y171.677 F7800.000
G1 X150.419 Y171.677 E7.71662 F1800.000
G1 X153.750 Y174.280 F7800.000
G1 X153.750 Y180.427 E7.85635 F1800.000
G1 E5.85635 F2400.00000
G92 E0
G1 X144.750 Y180.427 F7800.000
G1 E2.00000 F2400.00000
G1 X144.750 Y174.280 E2.13974 F1800.000
G1 X141.419 Y171.677 F7800.000
G1 X138.581 Y171.677 E2.20424 F1800.000
G1 X137.591 Y171.332 F7800.000
G1 X137.621 Y171.427 E2.20650 F1800.000
G1 X137.216 Y172.673 E2.23630
G1 X136.156 Y173.444 E2.26610
G1 X134.844 Y173.444 E2.29591
G1 X133.784 Y172.673 E2.32572
G1 X133.379 Y171.427 E2.35551
G1 X133.784 Y170.180 E2.38531
G1 X134.844 Y169.409 E2.41512
G1 X136.156 Y169.409 E2.44492
G1 X137.216 Y170.180 E2.47473
G1 X137.567 Y171.261 E2.50056 F1800.000
G1 X138.100 Y171.166 F7800.000
G1 X138.250 Y171.627 E2.51156 F1800.000
G1 X138.120 Y171.627 E2.51451
G1 X137.672 Y173.004 E2.54744
G1 X136.330 Y173.980 E2.58516
G1 X134.670 Y173.980 E2.62288
G1 X133.328 Y173.004 E2.66059
G1 X132.880 Y171.627 E2.69352
G1 X132.750 Y171.627 E2.69648
G1 X133.328 Y169.849 E2.73897
G1 X134.670 Y168.874 E2.77669
G1 X136.330 Y168.874 E2.81440
G1 X137.672 Y169.849 E2.85212
G1 X138.077 Y171.095 E2.88191 F1800.000
G1 X137.776 Y171.526 F7800.000
G1 X135.750 Y168.574 F7800.000
G1 X135.750 Y165.280 E2.95679 F1800.000
G1 X132.419 Y162.677 F7800.000
G1 X129.581 Y162.677 E3.02129 F1800.000
G1 X128.216 Y163.673 F7800.000
G1 X127.156 Y164.444 E3.05110 F1800.000
G1 X125.844 Y164.444 E3.08090
G1 X124.784 Y163.673 E3.11071
G1 X124.379 Y162.427 E3.14051
G1 X124.784 Y161.180 E3.17031
G1 X125.844 Y160.409 E3.20012
G1 X127.156 Y160.409 E3.22992
G1 X128.216 Y161.180 E3.25973
G1 X128.621 Y162.427 E3.28953 F1800.000
G1 X128.239 Y163.602 E3.31762
G1 X128.726 Y163.839 F7800.000
G1 X128.672 Y164.004 E3.32158 F1800.000
G1 X127.330 Y164.980 E3.35930
G1 X125.670 Y164.980 E3.39701
G1 X124.328 Y164.004 E3.43473
G1 X123.880 Y162.627 E3.46766
G1 X123.750 Y162.627 E3.47062
G1 X124.328 Y160.849 E3.51311
G1 X125.670 Y159.873 E3.55083
G1 X127.330 Y159.873 E3.58855
G1 X128.672 Y160.849 E3.62627
G1 X129.250 Y162.627 E3.66876 F1800.000
G1 X129.120 Y162.627 E3.67172
G1 X128.749 Y163.767 E3.69899
G1 X128.555 Y163.875 F7800.000
G1 X126.750 Y159.573 F7800.000
G1 X126.750 Y156.280 E3.77386 F1800.000
G1 X123.419 Y153.677 F7800.000
G1 X120.581 Y153.677 E3.83836 F1800.000
G1 X119.216 Y154.674 F7800.000
G1 X118.156 Y155.444 E3.86816 F1800.000
G1 X116.844 Y155.444 E3.89797
G1 X115.784 Y154.674 E3.92777
G1 X115.379 Y153.426 E3.95758
G1 X115.784 Y152.180 E3.98738
G1 X116.844 Y151.409 E4.01719
G1 X118.156 Y151.409 E4.04699
G1 X119.216 Y152.180 E4.07680
G1 X119.621 Y153.426 E4.10660 F1800.000
G1 X119.239 Y154.602 E4.13470
G1 X119.726 Y154.839 F7800.000
G1 X119.672 Y155.005 E4.13866 F1800.000
G1 X118.330 Y155.980 E4.17637
G1 X116.670 Y155.980 E4.21409
G1 X115.328 Y155.005 E4.25181
G1 X114.880 Y153.627 E4.28475
G1 X114.750 Y153.627 E4.28770
