; generated by Slic3r 1.2.9 on 2018-10-30 at 13:55:16

; external perimeters extrusion width = 0.50mm
; perimeters extrusion width = 0.58mm
; infill extrusion width = 0.58mm
; solid infill extrusion width = 0.58mm
; top infill extrusion width = 0.58mm

M107
M190 S60 ; set bed temperature
M104 S200 ; set temperature
G28 ; home all axes
G1 Z5 F5000 ; lift nozzle

M109 S200 ; wait for temperature to be reached
G21 ; set units to millimeters
G90 ; use absolute coordinates
M82 ; use absolute distances for extrusion
G92 E0
G1 Z0.200 F7800.000
G1 E-2.00000 F2400.00000
G92 E0
G1 X88.880 Y75.108 F7800.000
G1 E2.00000 F2400.00000
G1 X89.360 Y74.582 E2.02008 F1800.000
G1 X89.872 Y74.088 E2.04015
G1 X90.665 Y73.432 E2.06919
G1 X90.989 Y73.197 E2.08047
G1 X91.584 Y72.807 E2.10055
G1 X92.485 Y72.312 E2.12955
G1 X93.134 Y72.017 E2.14964
G1 X93.506 Y71.870 E2.16092
G1 X94.483 Y71.552 E2.18992
G1 X94.870 Y71.453 E2.20119
G1 X95.567 Y71.310 E2.22125
G1 X96.589 Y71.181 E2.25030
G1 X97.500 Y71.143 E2.27602
G1 X142.700 Y71.146 E3.55097
G1 X143.411 Y71.181 E3.57104 F1800.000
G1 X144.123 Y71.261 E3.59124
G1 X145.130 Y71.453 E3.62016
G1 X145.818 Y71.640 E3.64029
G1 X159.618 Y76.506 E4.05303
G1 X161.571 Y77.617 E4.11639
G1 X163.015 Y79.338 E4.17975
G1 X163.857 Y82.500 E4.27206
G1 X163.857 Y158.500 E6.41577
G1 X163.460 Y160.711 E6.47913
G1 X161.995 Y162.995 E6.55568
G1 X147.995 Y176.995 E7.11414
G1 X146.151 Y178.278 E7.17750
G1 X143.500 Y178.857 E7.25405
G1 X97.500 Y178.857 E8.55155
G1 X95.289 Y178.460 E8.61491
G1 X93.354 Y177.319 E8.67827
G1 X91.506 Y174.618 E8.77058
G1 X86.640 Y160.818 E9.18335
G1 X86.453 Y160.130 E9.20345
G1 X86.261 Y159.123 E9.23237
G1 X86.181 Y158.410 E9.25261
G1 X86.146 Y157.699 E9.27267
G1 X86.143 Y82.500 E11.39380
G1 X86.156 Y81.986 E11.40831
G1 X86.210 Y81.276 E11.42838
G1 X86.261 Y80.877 E11.43972
G1 X86.384 Y80.177 E11.45978
G1 X86.640 Y79.182 E11.48876
G1 X86.870 Y78.505 E11.50892
G1 X87.017 Y78.134 E11.52018
G1 X87.312 Y77.485 E11.54028
G1 X87.647 Y76.855 E11.56043
G1 X88.197 Y75.989 E11.58936
G1 X88.832 Y75.166 E11.61869
G1 E9.61869 F2400.00000
G92 E0
G1 X142.700 Y152.688 F7800.000
G1 E2.00000 F2400.00000
G1 X141.901 Y152.738 E2.02257 F1800.000
G1 X141.604 Y152.785 E2.03107
G1 X141.014 Y152.936 E2.04825
G1 X140.736 Y153.036 E2.05658
G1 X140.190 Y153.293 E2.07358
G1 X139.931 Y153.446 E2.08209
G1 X139.438 Y153.804 E2.09926
G1 X139.212 Y154.003 E2.10776
G1 X138.802 Y154.441 E2.12468
G1 X138.446 Y154.931 E2.14177
G1 X138.295 Y155.185 E2.15010
G1 X138.036 Y155.736 E2.16727
G1 X137.934 Y156.020 E2.17578
G1 X137.785 Y156.604 E2.19278
G1 X137.738 Y156.895 E2.20111
G1 X137.688 Y157.700 E2.22385
G1 X132.312 Y157.700 E2.37548
G1 X132.262 Y156.895 E2.39823
G1 X132.215 Y156.604 E2.40655
G1 X132.063 Y156.011 E2.42382
G1 X131.842 Y155.454 E2.44073
G1 X131.708 Y155.190 E2.44906
G1 X131.381 Y154.676 E2.46624
G1 X131.198 Y154.440 E2.47466
G1 X131.001 Y154.217 E2.48308
G1 X130.564 Y153.806 E2.49999
G1 X130.069 Y153.446 E2.51726
G1 X129.815 Y153.295 E2.52558
G1 X129.264 Y153.036 E2.54276
G1 X128.986 Y152.936 E2.55110
G1 X128.300 Y152.757 E2.57109
G1 X128.300 Y147.243 E2.72664
G1 X128.986 Y147.064 E2.74663
G1 X129.264 Y146.964 E2.75497
G1 X129.812 Y146.706 E2.77206
G1 X130.321 Y146.383 E2.78906
G1 X130.790 Y145.994 E2.80623
G1 X131.200 Y145.557 E2.82315
G1 X131.381 Y145.324 E2.83148
G1 X131.706 Y144.812 E2.84857
G1 X131.964 Y144.264 E2.86566
G1 X132.064 Y143.986 E2.87400
G1 X132.243 Y143.300 E2.89399
G1 X137.757 Y143.300 E3.04954
G1 X137.936 Y143.986 E3.06953
G1 X138.036 Y144.264 E3.07786
G1 X138.295 Y144.815 E3.09505
G1 X138.446 Y145.069 E3.10337
G1 X138.802 Y145.559 E3.12046
G1 X139.217 Y146.001 E3.13755
G1 X139.440 Y146.198 E3.14597
G1 X139.676 Y146.381 E3.15439
G1 X140.190 Y146.708 E3.17156
G1 X140.454 Y146.842 E3.17989
G1 X141.011 Y147.063 E3.19681
G1 X141.604 Y147.215 E3.21408
G1 X141.895 Y147.262 E3.22240
G1 X142.700 Y147.312 E3.24514
G1 X142.700 Y152.613 E3.39466
G1 X142.721 Y153.187 F7800.000
G1 E1.39466 F2400.00000
G92 E0
G1 X131.089 Y145.118 F7800.000
G1 E2.00000 F2400.00000
G1 X130.928 Y145.325 E2.00738 F1800.000
G1 X130.545 Y145.734 E2.02319
G1 X130.111 Y146.094 E2.03910
G1 X129.640 Y146.392 E2.05483
G1 X129.127 Y146.634 E2.07081
G1 X128.880 Y146.723 E2.07821
G1 X127.934 Y146.969 E2.10580
G1 X126.943 Y146.907 E2.13379
G1 X126.387 Y146.801 E2.14978
G1 X125.873 Y146.634 E2.16502
G1 X125.360 Y146.392 E2.18100
G1 X124.882 Y146.089 E2.19698
G1 X124.668 Y145.923 E2.20460
G1 X124.465 Y145.744 E2.21223
G1 X124.077 Y145.331 E2.22821
G1 X123.745 Y144.873 E2.24419
G1 X123.611 Y144.648 E2.25157
G1 X123.366 Y144.127 E2.26780
G1 X123.277 Y143.880 E2.27521
G1 X123.031 Y142.934 E2.30279
G1 X123.094 Y141.935 E2.33103
G1 X123.135 Y141.676 E2.33841
G1 X123.276 Y141.124 E2.35448
G1 X123.366 Y140.873 E2.36203
G1 X123.608 Y140.360 E2.37800
G1 X123.911 Y139.882 E2.39398
G1 X124.071 Y139.675 E2.40136
G1 X124.465 Y139.256 E2.41758
G1 X124.666 Y139.079 E2.42513
G1 X125.127 Y138.745 E2.44119
G1 X125.352 Y138.611 E2.44857
G1 X125.873 Y138.366 E2.46480
G1 X126.119 Y138.278 E2.47218
G1 X126.676 Y138.135 E2.48841
G1 X126.935 Y138.094 E2.49579
G1 X127.934 Y138.031 E2.52403
G1 X128.880 Y138.277 E2.55161
G1 X129.127 Y138.366 E2.55902 F1800.000
G1 X129.648 Y138.611 E2.57525
G1 X129.873 Y138.745 E2.58263
G1 X130.338 Y139.083 E2.59885
G1 X130.535 Y139.256 E2.60623
G1 X130.929 Y139.675 E2.62246
G1 X131.089 Y139.882 E2.62984
G1 X131.397 Y140.368 E2.64607
G1 X131.516 Y140.601 E2.65345
G1 X131.722 Y141.122 E2.66926
G1 X131.865 Y141.676 E2.68542
G1 X131.906 Y141.935 E2.69279
G1 X131.969 Y142.934 E2.72103
G1 X131.723 Y143.880 E2.74861
G1 X131.634 Y144.127 E2.75602
G1 X131.392 Y144.640 E2.77200
G1 X131.129 Y145.055 E2.78587
G1 X132.312 Y142.700 F7800.000
G1 X132.262 Y141.895 E2.80861 F1800.000
G1 X132.215 Y141.604 E2.81693
G1 X132.063 Y141.011 E2.83420
G1 X131.842 Y140.454 E2.85112
G1 X131.708 Y140.190 E2.85945
G1 X131.381 Y139.676 E2.87662
G1 X131.200 Y139.443 E2.88495
G1 X130.783 Y138.999 E2.90213
G1 X130.562 Y138.804 E2.91046
G1 X130.069 Y138.446 E2.92764
G1 X129.815 Y138.295 E2.93596
G1 X129.264 Y138.036 E2.95315
G1 X128.986 Y137.936 E2.96148
G1 X128.300 Y137.757 E2.98147
G1 X128.300 Y132.243 E3.13702
G1 X128.986 Y132.064 E3.15701
G1 X129.264 Y131.964 E3.16535
G1 X129.815 Y131.705 E3.18253
G1 X130.069 Y131.554 E3.19086
G1 X130.554 Y131.202 E3.20777
G1 X130.999 Y130.785 E3.22495
G1 X131.383 Y130.321 E3.24195
G1 X131.706 Y129.812 E3.25895
G1 X131.964 Y129.264 E3.27604
G1 X132.064 Y128.986 E3.28438
G1 X132.243 Y128.300 E3.30437
G1 X137.757 Y128.300 E3.45992
G1 X137.936 Y128.986 E3.47991
G1 X138.036 Y129.264 E3.48825
G1 X138.295 Y129.815 E3.50543
G1 X138.446 Y130.069 E3.51376
G1 X138.802 Y130.559 E3.53085
G1 X139.217 Y131.001 E3.54794
G1 X139.440 Y131.198 E3.55635
G1 X139.676 Y131.381 E3.56477
G1 X140.190 Y131.708 E3.58195
G1 X140.454 Y131.842 E3.59028
G1 X141.011 Y132.063 E3.60719
G1 X141.604 Y132.215 E3.62446
G1 X141.895 Y132.262 E3.63278
G1 X142.700 Y132.312 E3.65553
G1 X142.700 Y137.688 E3.80716
G1 X141.895 Y137.738 E3.82990
G1 X141.604 Y137.785 E3.83823
G1 X141.014 Y137.936 E3.85541
G1 X140.736 Y138.036 E3.86373
G1 X140.188 Y138.294 E3.88083
G1 X139.676 Y138.619 E3.89791
G1 X139.443 Y138.800 E3.90624
G1 X138.999 Y139.217 E3.92342
G1 X138.800 Y139.443 E3.93192
G1 X138.446 Y139.931 E3.94893
G1 X138.295 Y140.185 E3.95725
G1 X138.036 Y140.736 E3.97443
G1 X137.934 Y141.020 E3.98293
G1 X137.785 Y141.604 E3.99994
G1 X137.738 Y141.895 E4.00827
G1 X137.688 Y142.700 E4.03101
G1 X132.387 Y142.700 E4.18053
G1 X131.813 Y142.721 F7800.000
G1 E2.18053 F2400.00000
G92 E0
G1 X128.880 Y131.723 F7800.000
G1 E2.00000 F2400.00000
G1 X127.934 Y131.969 E2.02758 F1800.000
G1 X126.943 Y131.907 E2.05558
G1 X126.387 Y131.801 E2.07156
G1 X125.873 Y131.634 E2.08680
G1 X125.360 Y131.392 E2.10279
G1 X124.882 Y131.089 E2.11877
G1 X124.465 Y130.744 E2.13401
G1 X124.077 Y130.331 E2.14999
G1 X123.745 Y129.873 E2.16597
G1 X123.611 Y129.648 E2.17335
G1 X123.366 Y129.127 E2.18958
G1 X123.277 Y128.880 E2.19698
G1 X123.031 Y127.934 E2.22457
G1 X123.094 Y126.935 E2.25281
G1 X123.135 Y126.676 E2.26019
G1 X123.276 Y126.124 E2.27625
G1 X123.366 Y125.873 E2.28380
G1 X123.611 Y125.352 E2.30003
G1 X123.745 Y125.127 E2.30740
G1 X124.078 Y124.669 E2.32339
G1 X124.461 Y124.260 E2.33920
G1 X124.662 Y124.082 E2.34676
G1 X125.127 Y123.745 E2.36297
G1 X125.352 Y123.611 E2.37035
G1 X125.873 Y123.366 E2.38657
G1 X126.124 Y123.276 E2.39412
G1 X126.676 Y123.135 E2.41018
G1 X126.935 Y123.094 E2.41756
G1 X127.934 Y123.031 E2.44581
G1 X128.880 Y123.277 E2.47339
G1 X129.127 Y123.366 E2.48080 F1800.000
G1 X129.648 Y123.611 E2.49703
G1 X129.873 Y123.745 E2.50440
G1 X130.331 Y124.078 E2.52039
G1 X130.740 Y124.461 E2.53620
G1 X131.089 Y124.882 E2.55161
G1 X131.392 Y125.360 E2.56759
G1 X131.631 Y125.867 E2.58341
G1 X131.801 Y126.387 E2.59881
G1 X131.907 Y126.943 E2.61479
G1 X131.969 Y127.934 E2.64279
G1 X131.723 Y128.880 E2.67037
G1 X131.634 Y129.127 E2.67778
G1 X131.392 Y129.640 E2.69376
G1 X131.094 Y130.111 E2.70949
G1 X130.738 Y130.540 E2.72522
G1 X130.327 Y130.926 E2.74113
G1 X129.873 Y131.255 E2.75694
G1 X129.648 Y131.389 E2.76432
G1 X129.127 Y131.634 E2.78055
G1 X128.951 Y131.697 E2.78584
G1 X132.312 Y127.700 F7800.000
G1 X132.262 Y126.898 E2.80850 F1800.000
G1 X132.148 Y126.303 E2.82559
G1 X132.065 Y126.017 E2.83400
G1 X131.961 Y125.730 E2.84259
G1 X131.706 Y125.188 E2.85951
G1 X131.381 Y124.676 E2.87660
G1 X131.199 Y124.441 E2.88501
G1 X130.997 Y124.212 E2.89360
G1 X130.559 Y123.802 E2.91052
G1 X130.069 Y123.446 E2.92761
G1 X129.815 Y123.295 E2.93594
G1 X129.264 Y123.036 E2.95312
G1 X128.986 Y122.936 E2.96146
G1 X128.300 Y122.757 E2.98145
G1 X128.300 Y117.243 E3.13700
G1 X128.986 Y117.064 E3.15699
G1 X129.264 Y116.964 E3.16533
G1 X129.815 Y116.705 E3.18251
G1 X130.069 Y116.554 E3.19083
G1 X130.554 Y116.202 E3.20775
G1 X130.999 Y115.785 E3.22493
G1 X131.383 Y115.321 E3.24193
G1 X131.706 Y114.812 E3.25893
G1 X131.964 Y114.264 E3.27602
G1 X132.064 Y113.986 E3.28435
G1 X132.243 Y113.300 E3.30435
G1 X137.757 Y113.300 E3.45989
G1 X137.936 Y113.986 E3.47989
G1 X138.036 Y114.264 E3.48822
G1 X138.295 Y114.815 E3.50540
G1 X138.446 Y115.069 E3.51373
G1 X138.804 Y115.562 E3.53091
G1 X139.003 Y115.788 E3.53941
G1 X139.443 Y116.200 E3.55642
G1 X139.676 Y116.381 E3.56474
G1 X140.188 Y116.706 E3.58183
G1 X140.736 Y116.964 E3.59893
G1 X141.017 Y117.065 E3.60734
G1 X141.303 Y117.148 E3.61576
G1 X141.898 Y117.262 E3.63285
G1 X142.700 Y117.312 E3.65550
G1 X142.700 Y122.688 E3.80713
G1 X141.895 Y122.738 E3.82987
G1 X141.604 Y122.785 E3.83820
G1 X141.014 Y122.936 E3.85538
G1 X140.736 Y123.036 E3.86371
G1 X140.188 Y123.294 E3.88080
G1 X139.676 Y123.619 E3.89789
G1 X139.443 Y123.800 E3.90622
G1 X138.999 Y124.217 E3.92339
G1 X138.800 Y124.443 E3.93190
G1 X138.446 Y124.931 E3.94890
G1 X138.293 Y125.190 E3.95740
G1 X138.036 Y125.736 E3.97441
G1 X137.934 Y126.020 E3.98291
G1 X137.785 Y126.604 E3.99992
G1 X137.738 Y126.895 E4.00824
G1 X137.688 Y127.700 E4.03099
G1 X132.387 Y127.700 E4.18050
G1 X131.813 Y127.721 F7800.000
G1 E2.18050 F2400.00000
G92 E0
G1 X128.880 Y116.723 F7800.000
G1 E2.00000 F2400.00000
G1 X127.934 Y116.969 E2.02758 F1800.000
G1 X126.943 Y116.907 E2.05558
G1 X126.387 Y116.801 E2.07156
G1 X125.873 Y116.634 E2.08680
G1 X125.360 Y116.392 E2.10279
G1 X124.882 Y116.089 E2.11877
G1 X124.675 Y115.928 E2.12615
G1 X124.260 Y115.539 E2.14221
G1 X124.082 Y115.338 E2.14976
G1 X123.745 Y114.873 E2.16598
G1 X123.611 Y114.648 E2.17336
G1 X123.366 Y114.127 E2.18959
G1 X123.277 Y113.880 E2.19699
G1 X123.031 Y112.934 E2.22457
G1 X123.094 Y111.935 E2.25282
G1 X123.135 Y111.676 E2.26020
G1 X123.278 Y111.119 E2.27643
G1 X123.366 Y110.873 E2.28380
G1 X123.611 Y110.352 E2.30003
G1 X123.745 Y110.127 E2.30741
G1 X124.079 Y109.666 E2.32347
G1 X124.256 Y109.465 E2.33103
G1 X124.675 Y109.071 E2.34725
G1 X124.882 Y108.911 E2.35463
G1 X125.360 Y108.608 E2.37061
G1 X125.873 Y108.366 E2.38658
G1 X126.124 Y108.276 E2.39413
G1 X126.676 Y108.135 E2.41019
G1 X126.935 Y108.094 E2.41757
G1 X127.934 Y108.031 E2.44582
G1 X128.880 Y108.277 E2.47340
G1 X129.127 Y108.366 E2.48080 F1800.000
G1 X129.648 Y108.611 E2.49703
G1 X129.873 Y108.745 E2.50441
G1 X130.331 Y109.077 E2.52039
G1 X130.744 Y109.465 E2.53638
G1 X131.089 Y109.882 E2.55162
G1 X131.392 Y110.360 E2.56760
G1 X131.634 Y110.873 E2.58358
G1 X131.801 Y111.387 E2.59882
G1 X131.907 Y111.943 E2.61480
G1 X131.969 Y112.934 E2.64280
G1 X131.723 Y113.880 E2.67038
G1 X131.634 Y114.127 E2.67779
G1 X131.392 Y114.640 E2.69377
G1 X131.094 Y115.111 E2.70950
G1 X130.738 Y115.540 E2.72523
G1 X130.327 Y115.926 E2.74114
G1 X129.873 Y116.255 E2.75695
G1 X129.648 Y116.389 E2.76433
G1 X129.127 Y116.634 E2.78056
G1 X128.951 Y116.697 E2.78585
G1 X132.312 Y112.700 F7800.000
G1 X132.262 Y111.898 E2.80851 F1800.000
G1 X132.148 Y111.303 E2.82560
G1 X132.065 Y111.017 E2.83401
G1 X131.964 Y110.736 E2.84243
G1 X131.706 Y110.188 E2.85952
G1 X131.381 Y109.676 E2.87661
G1 X131.198 Y109.440 E2.88502
G1 X131.001 Y109.217 E2.89344
G1 X130.559 Y108.802 E2.91053
G1 X130.069 Y108.446 E2.92762
G1 X129.815 Y108.295 E2.93595
G1 X129.264 Y108.036 E2.95313
G1 X128.986 Y107.936 E2.96147
G1 X128.300 Y107.757 E2.98146
G1 X128.300 Y102.243 E3.13701
G1 X128.986 Y102.064 E3.15700
G1 X129.264 Y101.964 E3.16534
G1 X129.812 Y101.706 E3.18243
G1 X130.324 Y101.381 E3.19952
G1 X130.557 Y101.200 E3.20784
G1 X130.999 Y100.786 E3.22493
G1 X131.383 Y100.321 E3.24194
G1 X131.706 Y99.812 E3.25894
G1 X131.964 Y99.264 E3.27603
G1 X132.064 Y98.986 E3.28437
G1 X132.243 Y98.300 E3.30436
G1 X137.757 Y98.300 E3.45990
G1 X137.936 Y98.986 E3.47990
G1 X138.036 Y99.264 E3.48823
G1 X138.295 Y99.815 E3.50541
G1 X138.446 Y100.069 E3.51374
G1 X138.804 Y100.562 E3.53092
G1 X138.999 Y100.783 E3.53925
G1 X139.443 Y101.200 E3.55643
G1 X139.676 Y101.381 E3.56476
G1 X140.190 Y101.708 E3.58193
G1 X140.454 Y101.842 E3.59026
G1 X141.011 Y102.063 E3.60718
G1 X141.604 Y102.215 E3.62444
G1 X141.895 Y102.262 E3.63277
G1 X142.700 Y102.312 E3.65551
G1 X142.700 Y107.688 E3.80714
G1 X141.895 Y107.738 E3.82989
G1 X141.604 Y107.785 E3.83821
G1 X141.014 Y107.936 E3.85539
G1 X140.736 Y108.036 E3.86372
G1 X140.188 Y108.294 E3.88081
G1 X139.676 Y108.619 E3.89790
G1 X139.443 Y108.800 E3.90623
G1 X138.999 Y109.217 E3.92340
G1 X138.800 Y109.443 E3.93191
G1 X138.446 Y109.931 E3.94891
G1 X138.293 Y110.190 E3.95741
G1 X138.036 Y110.736 E3.97442
G1 X137.934 Y111.020 E3.98292
G1 X137.785 Y111.604 E3.99993
G1 X137.738 Y111.895 E4.00825
G1 X137.688 Y112.700 E4.03100
G1 X132.387 Y112.700 E4.18051
G1 X131.813 Y112.721 F7800.000
G1 E2.18051 F2400.00000
G92 E0
G1 X128.880 Y101.723 F7800.000
G1 E2.00000 F2400.00000
G1 X127.934 Y101.969 E2.02758 F1800.000
G1 X126.943 Y101.907 E2.05558
G1 X126.387 Y101.801 E2.07156
G1 X125.873 Y101.634 E2.08680
G1 X125.360 Y101.392 E2.10279
G1 X124.882 Y101.089 E2.11877
G1 X124.465 Y100.744 E2.13401
G1 X124.077 Y100.331 E2.14999
G1 X123.745 Y99.873 E2.16597
G1 X123.611 Y99.648 E2.17335
G1 X123.366 Y99.127 E2.18958
G1 X123.277 Y98.880 E2.19698
G1 X123.031 Y97.934 E2.22457
G1 X123.094 Y96.935 E2.25281
G1 X123.135 Y96.676 E2.26019
G1 X123.276 Y96.124 E2.27625
G1 X123.367 Y95.872 E2.28381
G1 X123.609 Y95.357 E2.29986
G1 X123.745 Y95.127 E2.30741
G1 X124.083 Y94.662 E2.32363
G1 X124.256 Y94.465 E2.33101
G1 X124.675 Y94.071 E2.34724
G1 X124.882 Y93.911 E2.35462
G1 X125.360 Y93.608 E2.37060
G1 X125.873 Y93.366 E2.38658
G1 X126.119 Y93.278 E2.39396
G1 X126.676 Y93.135 E2.41019
G1 X126.935 Y93.094 E2.41757
G1 X127.934 Y93.031 E2.44581
G1 X128.880 Y93.277 E2.47339
G1 X129.127 Y93.366 E2.48080 F1800.000
G1 X129.648 Y93.611 E2.49703
G1 X129.873 Y93.745 E2.50440
G1 X130.331 Y94.077 E2.52038
G1 X130.744 Y94.465 E2.53637
G1 X131.089 Y94.882 E2.55161
G1 X131.392 Y95.360 E2.56759
G1 X131.634 Y95.873 E2.58357
G1 X131.801 Y96.387 E2.59882
G1 X131.906 Y96.937 E2.61463
G1 X131.969 Y97.933 E2.64276
G1 X131.723 Y98.880 E2.67038
G1 X131.634 Y99.127 E2.67778
G1 X131.392 Y99.640 E2.69377
G1 X131.094 Y100.111 E2.70950
G1 X130.738 Y100.541 E2.72523
G1 X130.325 Y100.929 E2.74122
