; generated by Slic3r 1.2.9 on 2018-10-30 at 14:28:30

; external perimeters extrusion width = 0.50mm
; perimeters extrusion width = 0.64mm
; infill extrusion width = 0.64mm
; solid infill extrusion width = 0.64mm
; top infill extrusion width = 0.64mm

M107
M190 S60 ; set bed temperature
M104 S200 ; set temperature
G28 ; home all axes
G1 Z5 F5000 ; lift nozzle

M109 S200 ; wait for temperature to be reached
G21 ; set units to millimeters
G90 ; use absolute coordinates
M82 ; use absolute distances for extrusion
G92 E0
G1 Z0.200 F7800.000
G1 E-2.00000 F2400.00000
G92 E0
G1 X88.880 Y75.108 F7800.000
G1 E2.00000 F2400.00000
G1 X89.582 Y74.360 E2.02894 F1800.000
G1 X90.108 Y73.880 E2.04902
G1 X90.417 Y73.624 E2.06033
G1 X91.248 Y73.020 E2.08933
G1 X91.855 Y72.647 E2.10940
G1 X92.205 Y72.454 E2.12068
G1 X93.134 Y72.017 E2.14964
G1 X93.506 Y71.870 E2.16092
G1 X94.181 Y71.640 E2.18104
G1 X95.177 Y71.384 E2.21004
G1 X95.877 Y71.261 E2.23010
G1 X96.276 Y71.210 E2.24144
G1 X96.986 Y71.156 E2.26151
G1 X97.500 Y71.143 E2.27603
G1 X127.700 Y71.146 E3.12788
G1 X128.724 Y71.210 E3.15680 F1800.000
G1 X129.496 Y71.320 E3.17881
G1 X158.559 Y76.232 E4.01021
G1 X160.673 Y76.992 E4.07357
G1 X162.391 Y78.439 E4.13693
G1 X163.498 Y80.393 E4.20029
G1 X163.857 Y82.500 E4.26056
G1 X163.857 Y143.500 E5.98117
G1 X163.460 Y145.711 E6.04453
G1 X161.995 Y147.995 E6.12108
G1 X132.995 Y176.995 E7.27790
G1 X131.151 Y178.278 E7.34126
G1 X128.500 Y178.857 E7.41780
G1 X97.500 Y178.857 E8.29221
G1 X95.289 Y178.460 E8.35557
G1 X93.354 Y177.319 E8.41893
G1 X91.937 Y175.577 E8.48229
G1 X91.232 Y173.559 E8.54256
G1 X86.320 Y144.496 E9.37396
G1 X86.210 Y143.723 E9.39598
G1 X86.146 Y142.699 E9.42492
G1 X86.143 Y82.500 E11.12295
G1 X86.156 Y81.986 E11.13746
G1 X86.210 Y81.276 E11.15753
G1 X86.261 Y80.877 E11.16887
G1 X86.384 Y80.177 E11.18893
G1 X86.638 Y79.188 E11.21773
G1 X86.870 Y78.506 E11.23806
G1 X87.017 Y78.134 E11.24933
G1 X87.312 Y77.485 E11.26943
G1 X87.647 Y76.855 E11.28958
G1 X88.197 Y75.989 E11.31851
G1 X88.832 Y75.166 E11.34783
G1 E9.34783 F2400.00000
G92 E0
G1 X127.700 Y137.688 F7800.000
G1 E2.00000 F2400.00000
G1 X126.895 Y137.738 E2.02274 F1800.000
G1 X126.604 Y137.785 E2.03107
G1 X126.014 Y137.936 E2.04825
G1 X125.736 Y138.036 E2.05658
G1 X125.185 Y138.295 E2.07376
G1 X124.931 Y138.446 E2.08209
G1 X124.443 Y138.800 E2.09909
G1 X124.217 Y138.999 E2.10759
G1 X123.800 Y139.443 E2.12477
G1 X123.619 Y139.676 E2.13310
G1 X123.294 Y140.188 E2.15019
G1 X123.036 Y140.736 E2.16728
G1 X122.934 Y141.020 E2.17578
G1 X122.785 Y141.604 E2.19278
G1 X122.738 Y141.895 E2.20111
G1 X122.688 Y142.700 E2.22386
G1 X102.312 Y142.700 E2.79859
G1 X102.262 Y141.895 E2.82133
G1 X102.215 Y141.604 E2.82965
G1 X102.063 Y141.011 E2.84692
G1 X101.842 Y140.454 E2.86384
G1 X101.708 Y140.190 E2.87217
G1 X101.381 Y139.676 E2.88934
G1 X101.200 Y139.443 E2.89767
G1 X100.783 Y138.999 E2.91485
G1 X100.562 Y138.804 E2.92318
G1 X100.069 Y138.446 E2.94036
G1 X99.815 Y138.295 E2.94868
G1 X99.264 Y138.036 E2.96586
G1 X98.986 Y137.936 E2.97420
G1 X98.300 Y137.757 E2.99419
G1 X98.300 Y117.243 E3.57284
G1 X98.986 Y117.064 E3.59283
G1 X99.264 Y116.964 E3.60117
G1 X99.812 Y116.706 E3.61826
G1 X100.321 Y116.383 E3.63526
G1 X100.790 Y115.994 E3.65244
G1 X101.200 Y115.557 E3.66935
G1 X101.381 Y115.324 E3.67768
G1 X101.706 Y114.812 E3.69477
G1 X101.964 Y114.264 E3.71186
G1 X102.064 Y113.986 E3.72020
G1 X102.243 Y113.300 E3.74019
G1 X122.757 Y113.300 E4.31884
G1 X122.936 Y113.986 E4.33883
G1 X123.036 Y114.264 E4.34717
G1 X123.295 Y114.815 E4.36435
G1 X123.446 Y115.069 E4.37268
G1 X123.804 Y115.562 E4.38985
G1 X124.003 Y115.788 E4.39836
G1 X124.443 Y116.200 E4.41536
G1 X124.676 Y116.381 E4.42369
G1 X125.188 Y116.706 E4.44078
G1 X125.736 Y116.964 E4.45787
G1 X126.017 Y117.065 E4.46629
G1 X126.303 Y117.148 E4.47470
G1 X126.898 Y117.262 E4.49179
G1 X127.700 Y117.312 E4.51445
G1 X127.700 Y137.613 E5.08706
G1 X127.721 Y138.187 F7800.000
G1 E3.08706 F2400.00000
G92 E0
G1 X100.928 Y115.325 F7800.000
G1 E2.00000 F2400.00000
G1 X100.545 Y115.734 E2.01581 F1800.000
G1 X100.111 Y116.094 E2.03172
G1 X99.640 Y116.392 E2.04745
G1 X99.127 Y116.634 E2.06343
G1 X98.880 Y116.723 E2.07083
G1 X97.934 Y116.969 E2.09842
G1 X96.935 Y116.906 E2.12666
G1 X96.676 Y116.865 E2.13404
G1 X96.119 Y116.722 E2.15027
G1 X95.873 Y116.634 E2.15764
G1 X95.352 Y116.389 E2.17388
G1 X95.127 Y116.255 E2.18125
G1 X94.669 Y115.922 E2.19724
G1 X94.260 Y115.539 E2.21305
G1 X94.082 Y115.338 E2.22061
G1 X93.745 Y114.873 E2.23682
G1 X93.611 Y114.648 E2.24420
G1 X93.366 Y114.127 E2.26043
G1 X93.278 Y113.881 E2.26781
G1 X93.135 Y113.324 E2.28404
G1 X93.094 Y113.065 E2.29142
G1 X93.058 Y112.500 E2.30740
G1 X93.094 Y111.935 E2.32338
G1 X93.135 Y111.676 E2.33075
G1 X93.278 Y111.119 E2.34699
G1 X93.366 Y110.873 E2.35436
G1 X93.611 Y110.352 E2.37059
G1 X93.745 Y110.127 E2.37797
G1 X94.083 Y109.662 E2.39420
G1 X94.256 Y109.465 E2.40158
G1 X94.675 Y109.071 E2.41781
G1 X94.882 Y108.911 E2.42518
G1 X95.360 Y108.608 E2.44116
G1 X95.873 Y108.366 E2.45715
G1 X96.119 Y108.278 E2.46452
G1 X96.676 Y108.135 E2.48076
G1 X96.935 Y108.094 E2.48813
G1 X97.934 Y108.031 E2.51638
G1 X98.880 Y108.277 E2.54396
G1 X99.127 Y108.366 E2.55136 F1800.000
G1 X99.648 Y108.611 E2.56759
G1 X99.873 Y108.745 E2.57497
G1 X100.331 Y109.078 E2.59095
G1 X100.740 Y109.461 E2.60677
G1 X101.089 Y109.882 E2.62218
G1 X101.397 Y110.368 E2.63840
G1 X101.516 Y110.601 E2.64579
G1 X101.722 Y111.122 E2.66160
G1 X101.865 Y111.676 E2.67775
G1 X101.906 Y111.935 E2.68512
G1 X101.969 Y112.934 E2.71337
G1 X101.723 Y113.880 E2.74095
G1 X101.634 Y114.127 E2.74835
G1 X101.392 Y114.640 E2.76434
G1 X101.089 Y115.118 E2.78032
G1 X100.974 Y115.266 E2.78558
G1 X102.312 Y112.700 F7800.000
G1 X102.262 Y111.895 E2.80833 F1800.000
G1 X102.215 Y111.604 E2.81665
G1 X102.063 Y111.011 E2.83392
G1 X101.842 Y110.454 E2.85083
G1 X101.708 Y110.190 E2.85916
G1 X101.381 Y109.676 E2.87634
G1 X101.199 Y109.441 E2.88475
G1 X100.997 Y109.212 E2.89334
G1 X100.559 Y108.802 E2.91026
G1 X100.069 Y108.446 E2.92735
G1 X99.815 Y108.295 E2.93568
G1 X99.264 Y108.036 E2.95286
G1 X98.986 Y107.936 E2.96120
G1 X98.300 Y107.757 E2.98119
G1 X98.300 Y87.243 E3.55984
G1 X98.986 Y87.064 E3.57983
G1 X99.264 Y86.964 E3.58817
G1 X99.812 Y86.706 E3.60526
G1 X100.324 Y86.381 E3.62235
G1 X100.557 Y86.200 E3.63067
G1 X100.999 Y85.786 E3.64777
G1 X101.383 Y85.321 E3.66477
G1 X101.706 Y84.812 E3.68177
G1 X101.964 Y84.264 E3.69886
G1 X102.064 Y83.986 E3.70720
G1 X102.243 Y83.300 E3.72719
G1 X122.757 Y83.300 E4.30584
G1 X122.936 Y83.986 E4.32583
G1 X123.036 Y84.264 E4.33417
G1 X123.295 Y84.815 E4.35135
G1 X123.446 Y85.069 E4.35967
G1 X123.804 Y85.562 E4.37685
G1 X124.003 Y85.788 E4.38535
G1 X124.443 Y86.200 E4.40236
G1 X124.676 Y86.381 E4.41069
G1 X125.188 Y86.706 E4.42778
G1 X125.736 Y86.964 E4.44487
G1 X126.017 Y87.065 E4.45328
G1 X126.303 Y87.148 E4.46170
G1 X126.898 Y87.262 E4.47879
G1 X127.700 Y87.312 E4.50145
G1 X127.700 Y107.688 E5.07618
G1 X126.895 Y107.738 E5.09892
G1 X126.604 Y107.785 E5.10725
G1 X126.020 Y107.934 E5.12425
G1 X125.736 Y108.036 E5.13276
G1 X125.188 Y108.294 E5.14984
G1 X124.676 Y108.619 E5.16693
G1 X124.443 Y108.800 E5.17526
G1 X123.999 Y109.217 E5.19244
G1 X123.800 Y109.443 E5.20094
G1 X123.446 Y109.931 E5.21795
G1 X123.295 Y110.185 E5.22627
G1 X123.036 Y110.736 E5.24345
G1 X122.936 Y111.014 E5.25178
G1 X122.785 Y111.604 E5.26896
G1 X122.738 Y111.895 E5.27729
G1 X122.688 Y112.700 E5.30003
G1 X102.387 Y112.700 E5.87265
G1 X101.813 Y112.721 F7800.000
G1 E3.87265 F2400.00000
G92 E0
G1 X97.934 Y86.969 F7800.000
G1 E2.00000 F2400.00000
G1 X96.943 Y86.907 E2.02800 F1800.000
G1 X96.395 Y86.802 E2.04373
G1 X95.865 Y86.630 E2.05946
G1 X95.360 Y86.392 E2.07520
G1 X94.882 Y86.089 E2.09118
G1 X94.675 Y85.929 E2.09856
G1 X94.262 Y85.541 E2.11454
G1 X93.906 Y85.111 E2.13028
G1 X93.608 Y84.640 E2.14601
G1 X93.370 Y84.135 E2.16174
G1 X93.198 Y83.605 E2.17747
G1 X93.093 Y83.057 E2.19321
G1 X93.058 Y82.500 E2.20894
G1 X93.093 Y81.943 E2.22468
G1 X93.199 Y81.387 E2.24066
G1 X93.366 Y80.873 E2.25590
G1 X93.605 Y80.365 E2.27172
G1 X93.907 Y79.889 E2.28762
G1 X94.262 Y79.459 E2.30335
G1 X94.675 Y79.071 E2.31933
G1 X94.882 Y78.911 E2.32671
G1 X95.368 Y78.603 E2.34294
G1 X95.600 Y78.484 E2.35031
G1 X96.133 Y78.274 E2.36646
G1 X96.676 Y78.135 E2.38228
G1 X96.935 Y78.094 E2.38966
G1 X97.509 Y78.058 E2.40589
G1 X97.779 Y78.066 E2.41351
G1 X98.048 Y78.092 E2.42114 F1800.000
G1 X98.613 Y78.199 E2.43737
G1 X98.864 Y78.272 E2.44474
G1 X99.399 Y78.484 E2.46097
G1 X99.632 Y78.603 E2.46835
G1 X100.118 Y78.911 E2.48458
G1 X100.325 Y79.071 E2.49196
G1 X100.744 Y79.465 E2.50819
G1 X100.917 Y79.662 E2.51557
G1 X101.255 Y80.127 E2.53179
G1 X101.389 Y80.352 E2.53917
G1 X101.634 Y80.873 E2.55540
G1 X101.722 Y81.119 E2.56278
G1 X101.865 Y81.676 E2.57901
G1 X101.906 Y81.935 E2.58639
G1 X101.969 Y82.934 E2.61463
G1 X101.723 Y83.880 E2.64221
G1 X101.634 Y84.127 E2.64962
G1 X101.392 Y84.640 E2.66560
G1 X101.094 Y85.111 E2.68133
G1 X100.738 Y85.541 E2.69707
G1 X100.325 Y85.929 E2.71305
G1 X100.118 Y86.089 E2.72043
G1 X99.640 Y86.392 E2.73641
G1 X99.127 Y86.634 E2.75239
G1 X98.880 Y86.723 E2.75980
G1 X98.006 Y86.950 E2.78526
G1 E0.78526 F2400.00000
G92 E0
G1 X123.031 Y82.934 F7800.000
G1 E2.00000 F2400.00000
G1 X123.094 Y81.935 E2.02824 F1800.000
G1 X123.135 Y81.676 E2.03562
G1 X123.278 Y81.119 E2.05185
G1 X123.366 Y80.873 E2.05923
G1 X123.608 Y80.360 E2.07521
G1 X123.911 Y79.882 E2.09119
G1 X124.071 Y79.675 E2.09857
G1 X124.465 Y79.256 E2.11480
G1 X124.662 Y79.083 E2.12218
G1 X125.127 Y78.745 E2.13841
G1 X125.352 Y78.611 E2.14578
G1 X125.873 Y78.366 E2.16202
G1 X126.119 Y78.278 E2.16939
G1 X126.668 Y78.137 E2.18537
G1 X127.229 Y78.066 E2.20134
G1 X127.497 Y78.058 E2.20890
G1 X128.057 Y78.093 E2.22471
G1 X128.613 Y78.199 E2.24069 F1800.000
G1 X128.870 Y78.274 E2.24824
G1 X129.399 Y78.484 E2.26430
G1 X129.632 Y78.603 E2.27168
G1 X130.118 Y78.911 E2.28791
G1 X130.325 Y79.071 E2.29529
G1 X130.744 Y79.465 E2.31152
G1 X130.917 Y79.662 E2.31890
G1 X131.255 Y80.127 E2.33512
G1 X131.389 Y80.352 E2.34250
G1 X131.634 Y80.873 E2.35873
G1 X131.722 Y81.119 E2.36611
G1 X131.865 Y81.676 E2.38234
G1 X131.906 Y81.935 E2.38972
G1 X131.969 Y82.934 E2.41796
G1 X131.723 Y83.880 E2.44554
G1 X131.634 Y84.127 E2.45295
G1 X131.392 Y84.640 E2.46893
G1 X131.094 Y85.111 E2.48466
G1 X130.738 Y85.541 E2.50040
G1 X130.325 Y85.929 E2.51638
G1 X130.118 Y86.089 E2.52376
G1 X129.640 Y86.392 E2.53974
G1 X129.127 Y86.634 E2.55572
G1 X128.880 Y86.723 E2.56312
G1 X127.934 Y86.969 E2.59071
G1 X126.943 Y86.907 E2.61870
G1 X126.387 Y86.801 E2.63469
G1 X126.127 Y86.725 E2.64231
G1 X125.873 Y86.634 E2.64993
G1 X125.360 Y86.392 E2.66592
G1 X124.882 Y86.089 E2.68190
G1 X124.675 Y85.928 E2.68928
G1 X124.260 Y85.539 E2.70534
G1 X124.082 Y85.338 E2.71290
G1 X123.745 Y84.873 E2.72911
G1 X123.611 Y84.648 E2.73649
G1 X123.366 Y84.127 E2.75272
G1 X123.277 Y83.880 E2.76013
G1 X123.050 Y83.006 E2.78559
G1 E0.78559 F2400.00000
G92 E0
G1 X126.935 Y108.094 F7800.000
G1 E2.00000 F2400.00000
G1 X127.934 Y108.031 E2.02824 F1800.000
G1 X128.880 Y108.277 E2.05583
G1 X129.127 Y108.366 E2.06323 F1800.000
G1 X129.648 Y108.611 E2.07946
G1 X129.873 Y108.745 E2.08684
G1 X130.331 Y109.077 E2.10282
G1 X130.744 Y109.465 E2.11880
G1 X131.089 Y109.882 E2.13404
G1 X131.392 Y110.360 E2.15002
G1 X131.634 Y110.873 E2.16601
G1 X131.801 Y111.387 E2.18125
G1 X131.907 Y111.943 E2.19723
G1 X131.969 Y112.934 E2.22523
G1 X131.723 Y113.880 E2.25281
G1 X131.634 Y114.127 E2.26022
G1 X131.392 Y114.640 E2.27620
G1 X131.094 Y115.111 E2.29193
G1 X130.738 Y115.541 E2.30767
G1 X130.325 Y115.928 E2.32364
G1 X130.113 Y116.092 E2.33119
G1 X129.640 Y116.392 E2.34700
G1 X129.127 Y116.634 E2.36299
G1 X128.880 Y116.723 E2.37039
G1 X127.934 Y116.969 E2.39798
G1 X126.943 Y116.907 E2.42597
G1 X126.387 Y116.801 E2.44196
G1 X126.127 Y116.725 E2.44958
G1 X125.873 Y116.634 E2.45720
G1 X125.360 Y116.392 E2.47319
G1 X124.882 Y116.089 E2.48917
G1 X124.675 Y115.928 E2.49655
G1 X124.260 Y115.539 E2.51261
G1 X124.082 Y115.338 E2.52016
G1 X123.745 Y114.873 E2.53638
G1 X123.611 Y114.648 E2.54376
G1 X123.366 Y114.127 E2.55999
G1 X123.277 Y113.880 E2.56739
G1 X123.031 Y112.934 E2.59498
G1 X123.094 Y111.935 E2.62322
G1 X123.135 Y111.676 E2.63060
G1 X123.278 Y111.119 E2.64683
G1 X123.366 Y110.873 E2.65420
G1 X123.611 Y110.352 E2.67044
G1 X123.745 Y110.127 E2.67782
G1 X124.079 Y109.666 E2.69388
G1 X124.256 Y109.465 E2.70143
G1 X124.675 Y109.071 E2.71765
G1 X124.882 Y108.911 E2.72503
G1 X125.360 Y108.608 E2.74101
G1 X125.873 Y108.366 E2.75698
G1 X126.124 Y108.276 E2.76453
G1 X126.676 Y108.135 E2.78059
G1 X126.860 Y108.105 E2.78586
G1 E0.78586 F2400.00000
G92 E0
G1 X127.934 Y138.031 F7800.000
G1 E2.00000 F2400.00000
G1 X128.880 Y138.277 E2.02758 F1800.000
G1 X129.127 Y138.366 E2.03499 F1800.000
G1 X129.648 Y138.611 E2.05122
G1 X129.873 Y138.745 E2.05859
G1 X130.338 Y139.083 E2.07482
G1 X130.535 Y139.256 E2.08220
G1 X130.929 Y139.675 E2.09843
G1 X131.089 Y139.882 E2.10581
G1 X131.397 Y140.368 E2.12204
G1 X131.516 Y140.601 E2.12942
G1 X131.722 Y141.122 E2.14523
G1 X131.865 Y141.676 E2.16139
G1 X131.906 Y141.935 E2.16876
G1 X131.969 Y142.934 E2.19700
G1 X131.723 Y143.880 E2.22458
G1 X131.634 Y144.127 E2.23199
G1 X131.392 Y144.640 E2.24797
G1 X131.089 Y145.118 E2.26395
G1 X130.928 Y145.325 E2.27133
G1 X130.545 Y145.734 E2.28714
G1 X130.111 Y146.094 E2.30305
G1 X129.640 Y146.392 E2.31878
G1 X129.127 Y146.634 E2.33476
G1 X128.880 Y146.723 E2.34217
G1 X127.934 Y146.969 E2.36975
G1 X126.943 Y146.907 E2.39774
G1 X126.387 Y146.801 E2.41373
G1 X125.873 Y146.634 E2.42897
G1 X125.360 Y146.392 E2.44495
G1 X124.882 Y146.089 E2.46093
G1 X124.465 Y145.744 E2.47617
G1 X124.077 Y145.331 E2.49216
G1 X123.745 Y144.873 E2.50814
G1 X123.611 Y144.648 E2.51551
G1 X123.366 Y144.127 E2.53175
G1 X123.277 Y143.880 E2.53915
G1 X123.031 Y142.934 E2.56673
G1 X123.094 Y141.935 E2.59498
G1 X123.135 Y141.676 E2.60236
G1 X123.276 Y141.124 E2.61842
G1 X123.366 Y140.873 E2.62597
G1 X123.608 Y140.360 E2.64194
G1 X123.911 Y139.882 E2.65792
G1 X124.071 Y139.675 E2.66530
G1 X124.465 Y139.256 E2.68152
G1 X124.666 Y139.079 E2.68908
G1 X125.127 Y138.745 E2.70514
G1 X125.352 Y138.611 E2.71252
G1 X125.873 Y138.366 E2.72875
G1 X126.119 Y138.278 E2.73612
G1 X126.676 Y138.135 E2.75235
G1 X126.935 Y138.094 E2.75973
G1 X127.859 Y138.036 E2.78586
G1 E0.78586 F2400.00000
G92 E0
G1 X101.906 Y141.935 F7800.000
G1 E2.00000 F2400.00000
G1 X101.969 Y142.934 E2.02825 F1800.000
G1 X101.723 Y143.880 E2.05583
G1 X101.634 Y144.127 E2.06323
G1 X101.392 Y144.640 E2.07921
G1 X101.089 Y145.118 E2.09519
G1 X100.928 Y145.325 E2.10257
G1 X100.545 Y145.734 E2.11839
G1 X100.111 Y146.094 E2.13430
G1 X99.640 Y146.392 E2.15002
G1 X99.127 Y146.634 E2.16600
G1 X98.880 Y146.723 E2.17341
G1 X97.934 Y146.969 E2.20099
G1 X96.935 Y146.906 E2.22924
G1 X96.676 Y146.865 E2.23661
G1 X96.119 Y146.722 E2.25284
G1 X95.873 Y146.634 E2.26022
G1 X95.352 Y146.389 E2.27645
G1 X95.127 Y146.255 E2.28383
G1 X94.662 Y145.917 E2.30006
G1 X94.465 Y145.744 E2.30743
G1 X94.071 Y145.325 E2.32366
G1 X93.911 Y145.118 E2.33104
G1 X93.608 Y144.640 E2.34702
G1 X93.366 Y144.127 E2.36301
G1 X93.278 Y143.881 E2.37038
G1 X93.135 Y143.324 E2.38661
G1 X93.094 Y143.065 E2.39399
G1 X93.058 Y142.500 E2.40997
G1 X93.094 Y141.935 E2.42595
G1 X93.135 Y141.676 E2.43333
G1 X93.276 Y141.124 E2.44940
G1 X93.366 Y140.873 E2.45695
G1 X93.608 Y140.360 E2.47292
G1 X93.911 Y139.882 E2.48890
G1 X94.071 Y139.675 E2.49628
G1 X94.465 Y139.256 E2.51251
G1 X94.662 Y139.083 E2.51989
G1 X95.127 Y138.745 E2.53611
G1 X95.352 Y138.611 E2.54349
G1 X95.873 Y138.366 E2.55972
G1 X96.119 Y138.278 E2.56710
G1 X96.676 Y138.135 E2.58333
G1 X96.935 Y138.094 E2.59071
G1 X97.934 Y138.031 E2.61895
G1 X98.880 Y138.277 E2.64653
G1 X99.127 Y138.366 E2.65394 F1800.000
G1 X99.648 Y138.611 E2.67017
G1 X99.873 Y138.745 E2.67755
G1 X100.338 Y139.083 E2.69377
G1 X100.535 Y139.256 E2.70115
G1 X100.929 Y139.675 E2.71738
G1 X101.089 Y139.882 E2.72476
G1 X101.397 Y140.368 E2.74099
G1 X101.516 Y140.601 E2.74837
