; generated by Slic3r 1.2.9 on 2018-10-30 at 14:03:18

; external perimeters extrusion width = 0.50mm
; perimeters extrusion width = 0.64mm
; infill extrusion width = 0.64mm
; solid infill extrusion width = 0.64mm
; top infill extrusion width = 0.64mm

M107
M190 S60 ; set bed temperature
M104 S200 ; set temperature
G28 ; home all axes
G1 Z5 F5000 ; lift nozzle

M109 S200 ; wait for temperature to be reached
G21 ; set units to millimeters
G90 ; use absolute coordinates
M82 ; use absolute distances for extrusion
G92 E0
G1 Z0.200 F7800.000
G1 E-2.00000 F2400.00000
G92 E0
G1 X75.108 Y88.880 F7800.000
G1 E2.00000 F2400.00000
G1 X75.416 Y88.624 E2.01130 F1800.000
G1 X75.988 Y88.197 E2.03143
G1 X76.855 Y87.647 E2.06038
G1 X77.205 Y87.454 E2.07166
G1 X77.846 Y87.142 E2.09177
G1 X78.801 Y86.764 E2.12076
G1 X79.182 Y86.640 E2.13204
G1 X79.870 Y86.453 E2.15217
G1 X80.877 Y86.261 E2.18109
G1 X81.277 Y86.210 E2.19243
G1 X81.986 Y86.156 E2.21249
G1 X82.706 Y86.146 E2.23281
G1 X172.853 Y91.153 E4.77949 F1800.000
G1 X175.039 Y91.672 E4.84285
G1 X176.907 Y92.919 E4.90621
G1 X178.225 Y94.737 E4.96957
G1 X178.857 Y97.500 E5.04951
G1 X178.857 Y98.500 E5.07771
G1 X178.460 Y100.711 E5.14107
G1 X177.319 Y102.646 E5.20443
G1 X176.013 Y103.799 E5.25358
G1 X87.013 Y162.799 E8.26550
G1 X84.950 Y163.689 E8.32886
G1 X83.500 Y163.857 E8.37005
G1 X82.500 Y163.857 E8.39825
G1 X80.289 Y163.460 E8.46161
G1 X78.354 Y162.319 E8.52497
G1 X76.937 Y160.577 E8.58833
G1 X76.165 Y158.030 E8.66340
G1 X71.175 Y98.344 E10.35282
G1 X71.146 Y97.699 E10.37101
G1 X71.156 Y96.986 E10.39114
G1 X71.210 Y96.276 E10.41121
G1 X71.261 Y95.877 E10.42255
G1 X71.384 Y95.177 E10.44261
G1 X71.640 Y94.181 E10.47161
G1 X71.870 Y93.506 E10.49174
G1 X72.142 Y92.846 E10.51187
G1 X72.454 Y92.205 E10.53198
G1 X72.647 Y91.855 E10.54326
G1 X73.020 Y91.248 E10.56333
G1 X73.432 Y90.665 E10.58347
G1 X74.088 Y89.872 E10.61251
G1 X74.582 Y89.360 E10.63258
G1 X75.052 Y88.929 E10.65055
G1 E8.65055 F2400.00000
G92 E0
G1 X85.325 Y100.929 F7800.000
G1 E2.00000 F2400.00000
G1 X85.118 Y101.089 E2.00738 F1800.000
G1 X84.640 Y101.392 E2.02336
G1 X84.127 Y101.634 E2.03934
G1 X83.880 Y101.723 E2.04675
G1 X82.934 Y101.969 E2.07433
G1 X81.935 Y101.906 E2.10257
G1 X81.676 Y101.865 E2.10995
G1 X81.119 Y101.722 E2.12618
G1 X80.873 Y101.634 E2.13356
G1 X80.352 Y101.389 E2.14979
G1 X80.127 Y101.255 E2.15716
G1 X79.662 Y100.917 E2.17339
G1 X79.465 Y100.744 E2.18077
G1 X79.071 Y100.325 E2.19700
G1 X78.911 Y100.118 E2.20438
G1 X78.608 Y99.640 E2.22036
G1 X78.366 Y99.127 E2.23634
G1 X78.278 Y98.881 E2.24372
G1 X78.135 Y98.324 E2.25995
G1 X78.094 Y98.065 E2.26733
G1 X78.058 Y97.500 E2.28331
G1 X78.094 Y96.935 E2.29929
G1 X78.135 Y96.676 E2.30667
G1 X78.276 Y96.124 E2.32273
G1 X78.366 Y95.873 E2.33028
G1 X78.608 Y95.360 E2.34626
G1 X78.911 Y94.882 E2.36224
G1 X79.071 Y94.675 E2.36961
G1 X79.465 Y94.256 E2.38584
G1 X79.662 Y94.083 E2.39322
G1 X80.127 Y93.745 E2.40945
G1 X80.352 Y93.611 E2.41683
G1 X80.873 Y93.366 E2.43306
G1 X81.119 Y93.278 E2.44043
G1 X81.668 Y93.137 E2.45642
G1 X82.230 Y93.066 E2.47239
G1 X82.497 Y93.058 E2.47994
G1 X83.057 Y93.093 E2.49576
G1 X83.613 Y93.199 E2.51174 F1800.000
G1 X83.864 Y93.272 E2.51912
G1 X84.399 Y93.484 E2.53535
G1 X84.632 Y93.603 E2.54273
G1 X85.118 Y93.911 E2.55895
G1 X85.325 Y94.071 E2.56633
G1 X85.744 Y94.465 E2.58256
G1 X85.917 Y94.662 E2.58994
G1 X86.255 Y95.127 E2.60617
G1 X86.389 Y95.352 E2.61354
G1 X86.634 Y95.873 E2.62978
G1 X86.722 Y96.119 E2.63715
G1 X86.865 Y96.676 E2.65338
G1 X86.906 Y96.935 E2.66076
G1 X86.969 Y97.934 E2.68900
G1 X86.723 Y98.880 E2.71659
G1 X86.634 Y99.127 E2.72399
G1 X86.392 Y99.640 E2.73997
G1 X86.094 Y100.111 E2.75571
G1 X85.738 Y100.541 E2.77144
G1 X85.380 Y100.877 E2.78531
G1 X83.300 Y102.243 F7800.000
G1 X83.300 Y157.300 E4.33829 F1800.000
G1 X82.700 Y157.300 E4.35522
G1 X82.700 Y102.312 E5.90624
G1 X81.895 Y102.262 E5.92899
G1 X81.604 Y102.215 E5.93731
G1 X81.014 Y102.064 E5.95449
G1 X80.736 Y101.964 E5.96282
G1 X80.185 Y101.705 E5.98000
G1 X79.931 Y101.554 E5.98833
G1 X79.438 Y101.196 E6.00551
G1 X79.217 Y101.001 E6.01383
G1 X78.800 Y100.557 E6.03102
G1 X78.619 Y100.324 E6.03934
G1 X78.294 Y99.812 E6.05643
G1 X78.036 Y99.264 E6.07352
G1 X77.936 Y98.986 E6.08185
G1 X77.785 Y98.396 E6.09903
G1 X77.738 Y98.105 E6.10736
G1 X77.700 Y97.500 E6.12445
G1 X77.738 Y96.895 E6.14154
G1 X77.785 Y96.604 E6.14987
G1 X77.934 Y96.020 E6.16687
G1 X78.036 Y95.736 E6.17537
G1 X78.294 Y95.188 E6.19246
G1 X78.619 Y94.676 E6.20955
G1 X78.800 Y94.443 E6.21788
G1 X79.217 Y93.999 E6.23506
G1 X79.438 Y93.804 E6.24339
G1 X79.931 Y93.446 E6.26057
G1 X80.185 Y93.295 E6.26889
G1 X80.736 Y93.036 E6.28607
G1 X81.014 Y92.936 E6.29440
G1 X81.601 Y92.785 E6.31149
G1 X82.202 Y92.710 E6.32858
G1 X82.503 Y92.700 E6.33708
G1 X83.102 Y92.738 E6.35400
G1 X83.697 Y92.852 E6.37109
G1 X83.980 Y92.934 E6.37942
G1 X84.547 Y93.158 E6.39660
G1 X84.810 Y93.292 E6.40493
G1 X85.324 Y93.619 E6.42210
G1 X85.557 Y93.800 E6.43043
G1 X86.001 Y94.217 E6.44761
G1 X86.196 Y94.438 E6.45594
G1 X86.554 Y94.931 E6.47312
G1 X86.705 Y95.185 E6.48144
G1 X86.964 Y95.736 E6.49862
G1 X87.064 Y96.014 E6.50695
G1 X87.215 Y96.604 E6.52413
G1 X87.262 Y96.895 E6.53246
G1 X87.312 Y97.700 E6.55520
G1 X172.300 Y97.700 E8.95243
G1 X172.300 Y98.300 E8.96935
G1 X87.243 Y98.300 E11.36854
G1 X87.064 Y98.986 E11.38853
G1 X86.964 Y99.264 E11.39687
G1 X86.706 Y99.812 E11.41396
G1 X86.383 Y100.321 E11.43096
G1 X85.999 Y100.786 E11.44796
G1 X85.557 Y101.200 E11.46506
G1 X85.324 Y101.381 E11.47338
G1 X84.812 Y101.706 E11.49047
G1 X84.264 Y101.964 E11.50756
G1 X83.986 Y102.064 E11.51590
G1 X83.373 Y102.224 E11.53378
G1 X82.802 Y102.285 F7800.000
G1 X83.000 Y102.136 F7800.000
G1 X83.000 Y157.121 E14.82210 F1800.000
G1 E12.82210 F2400.00000
G92 E0
G1 X79.942 Y100.792 F7800.000
G1 E2.00000 F2400.00000
G1 X79.198 Y100.047 E2.02992 F1800.000
G1 X78.525 Y98.866 F7800.000
G1 X81.134 Y101.475 E2.13475 F1800.000
G1 X81.835 Y101.667 E2.15540
G1 X78.333 Y98.165 E2.29612
G1 X78.278 Y97.601 E2.31222
G1 X82.399 Y101.722 E2.47781
G1 X82.942 Y101.757 E2.49326
G1 X78.287 Y97.102 E2.68029
G1 X78.340 Y96.646 E2.69332
G1 X83.356 Y101.662 E2.89484
G1 X83.759 Y101.557 E2.90669
G1 X78.444 Y96.241 E3.12025
G1 X78.573 Y95.862 E3.13163
G1 X84.138 Y101.427 E3.35521
G1 X84.484 Y101.264 E3.36607
G1 X78.736 Y95.516 E3.59700
G1 X78.924 Y95.196 E3.60756
G1 X84.804 Y101.076 E3.84382
G1 X85.109 Y100.872 E3.85424
G1 X79.128 Y94.891 E4.09453
G1 X79.372 Y94.627 E4.10476
G1 X85.373 Y100.627 E4.34585
G1 X85.627 Y100.373 E4.35606
G1 X79.627 Y94.372 E4.59715
G1 X79.895 Y94.132 E4.60739
G1 X85.868 Y100.105 E4.84737
G1 X86.076 Y99.804 E4.85776
G1 X80.190 Y93.918 E5.09425
G1 X80.516 Y93.736 E5.10487
G1 X86.264 Y99.484 E5.33580
G1 X86.427 Y99.138 E5.34666
G1 X80.862 Y93.573 E5.57023
G1 X81.241 Y93.444 E5.58162
G1 X86.557 Y98.759 E5.79518
G1 X86.662 Y98.356 E5.80703
G1 X81.646 Y93.340 E6.00854
G1 X82.098 Y93.283 E6.02148
G1 X86.757 Y97.942 E6.20866
G1 X86.722 Y97.399 E6.22411
G1 X82.601 Y93.277 E6.38971
G1 X83.175 Y93.343 E6.40613
G1 X86.667 Y96.835 E6.54643
G1 X86.475 Y96.134 E6.56708
G1 X83.877 Y93.537 E6.67146
G1 X85.047 Y94.198 F7800.000
G1 X85.792 Y94.942 E6.70138 F1800.000
G1 X87.136 Y98.000 F7800.000
G1 X172.121 Y98.000 E11.78382 F1800.000
G1 Z0.550 F7800.000
G1 E9.78382 F2400.00000
G92 E0
G1 X83.163 Y101.717 F7800.000
G1 E2.00000 F2400.00000
G1 X82.916 Y101.782 E2.01982 F900.000
G1 X81.955 Y101.721 E2.09448
G1 X81.714 Y101.683 E2.11340
G1 X81.174 Y101.544 E2.15667
G1 X80.944 Y101.462 E2.17559
G1 X80.439 Y101.224 E2.21885
G1 X80.229 Y101.100 E2.23778
G1 X79.778 Y100.772 E2.28103
G1 X79.595 Y100.611 E2.29996
G1 X79.213 Y100.204 E2.34323
G1 X79.063 Y100.011 E2.36215
G1 X78.771 Y99.550 E2.40450
G1 X78.538 Y99.056 E2.44686
G1 X78.456 Y98.826 E2.46578
G1 X78.317 Y98.286 E2.50904
G1 X78.279 Y98.045 E2.52797
G1 X78.244 Y97.500 E2.57032
G1 X78.279 Y96.955 E2.61267
G1 X78.317 Y96.714 E2.63163
G1 X78.450 Y96.194 E2.67320
G1 X78.539 Y95.943 E2.69390
G1 X78.771 Y95.450 E2.73614
G1 X79.063 Y94.989 E2.77849
G1 X79.213 Y94.796 E2.79741
G1 X79.595 Y94.389 E2.84067
G1 X79.778 Y94.228 E2.85960
G1 X80.229 Y93.900 E2.90286
G1 X80.439 Y93.776 E2.92178
G1 X80.944 Y93.538 E2.96505
G1 X81.174 Y93.456 E2.98397
G1 X81.703 Y93.320 E3.02632
G1 X82.243 Y93.252 E3.06855
G1 X82.510 Y93.244 E3.08926
G1 X83.033 Y93.278 E3.12991
G1 X83.570 Y93.380 E3.17230 F900.000
G1 X83.804 Y93.448 E3.19123
G1 X84.323 Y93.654 E3.23449
G1 X84.540 Y93.765 E3.25342
G1 X85.011 Y94.063 E3.29667
G1 X85.204 Y94.213 E3.31559
G1 X85.611 Y94.595 E3.35886
G1 X85.772 Y94.778 E3.37779
G1 X86.100 Y95.229 E3.42104
G1 X86.224 Y95.439 E3.43997
G1 X86.462 Y95.944 E3.48323
G1 X86.544 Y96.174 E3.50215
G1 X86.683 Y96.714 E3.54542
G1 X86.721 Y96.955 E3.56434
G1 X86.782 Y97.916 E3.63900
G1 X86.545 Y98.825 E3.71188
G1 X86.462 Y99.056 E3.73090
G1 X86.229 Y99.550 E3.77326
G1 X85.943 Y100.001 E3.81470
G1 X85.602 Y100.413 E3.85615
G1 X85.204 Y100.787 E3.89850
G1 X85.011 Y100.937 E3.91742
G1 X84.550 Y101.229 E3.95977
G1 X84.056 Y101.462 E4.00213
G1 X83.825 Y101.545 E4.02115
G1 X83.236 Y101.698 E4.06839
G1 X83.250 Y102.204 F7800.000
G1 X83.250 Y157.250 E7.30155 F1800.000
G1 X82.750 Y157.250 E7.33092
G1 X82.750 Y102.265 E10.56048
G1 X81.901 Y102.212 E10.61046
G1 X81.614 Y102.166 E10.62752
G1 X81.028 Y102.016 E10.66302
G1 X80.755 Y101.918 E10.68008
G1 X80.208 Y101.660 E10.71558
G1 X79.958 Y101.512 E10.73264
G1 X79.469 Y101.157 E10.76813
G1 X79.251 Y100.965 E10.78520
G1 X78.838 Y100.525 E10.82070
G1 X78.660 Y100.295 E10.83776
G1 X78.338 Y99.788 E10.87302
G1 X78.082 Y99.245 E10.90829
G1 X77.984 Y98.972 E10.92535
G1 X77.834 Y98.386 E10.96085
G1 X77.788 Y98.099 E10.97791
G1 X77.750 Y97.500 E11.01318
G1 X77.788 Y96.901 E11.04844
G1 X77.834 Y96.614 E11.06551
G1 X77.978 Y96.050 E11.09966
G1 X78.083 Y95.755 E11.11809
G1 X78.338 Y95.212 E11.15333
G1 X78.660 Y94.705 E11.18859
G1 X78.838 Y94.475 E11.20565
G1 X79.251 Y94.035 E11.24115
G1 X79.469 Y93.843 E11.25822
G1 X79.958 Y93.488 E11.29371
G1 X80.208 Y93.340 E11.31077
G1 X80.755 Y93.082 E11.34627
G1 X81.028 Y92.984 E11.36333
G1 X81.610 Y92.835 E11.39860
G1 X82.205 Y92.759 E11.43383
G1 X82.519 Y92.751 E11.45227
G1 X83.095 Y92.788 E11.48618
G1 X83.685 Y92.900 E11.52145
G1 X83.964 Y92.981 E11.53852
G1 X84.526 Y93.204 E11.57401
G1 X84.785 Y93.336 E11.59108
G1 X85.295 Y93.660 E11.62657
G1 X85.525 Y93.838 E11.64364
G1 X85.965 Y94.251 E11.67913
G1 X86.157 Y94.469 E11.69620
G1 X86.512 Y94.958 E11.73169
G1 X86.660 Y95.208 E11.74876
G1 X86.918 Y95.755 E11.78425
G1 X87.016 Y96.028 E11.80132
G1 X87.166 Y96.614 E11.83681
G1 X87.212 Y96.901 E11.85388
G1 X87.265 Y97.750 E11.90385
G1 X172.250 Y97.750 E16.89549
G1 X172.250 Y98.250 E16.92485
G1 X87.204 Y98.250 E21.92008
G1 X87.016 Y98.971 E21.96385
G1 X86.918 Y99.245 E21.98093
G1 X86.662 Y99.788 E22.01620
G1 X86.342 Y100.292 E22.05123
G1 X85.962 Y100.751 E22.08627
G1 X85.525 Y101.162 E22.12153
G1 X85.295 Y101.340 E22.13859
G1 X84.788 Y101.662 E22.17386
G1 X84.245 Y101.918 E22.20912
G1 X83.971 Y102.016 E22.22621
G1 X83.323 Y102.185 E22.26557
G1 X82.752 Y102.247 F7800.000
G1 X84.760 Y100.580 F7800.000
G1 X85.523 Y99.817 E22.35231 F1200.000
G1 X86.326 Y98.193 F7800.000
G1 X83.193 Y101.326 E22.70810 F1200.000
G1 X82.286 Y101.411 E22.78126
G1 X86.411 Y97.286 E23.24977
G1 X86.320 Y96.555 E23.30891
G1 X81.555 Y101.320 E23.85013
G1 X80.929 Y101.125 E23.90281
G1 X86.125 Y95.929 E24.49293
G1 X85.849 Y95.383 E24.54205
G1 X80.383 Y100.849 E25.16294
G1 X79.916 Y100.495 E25.21002
G1 X85.495 Y94.916 E25.84364
G1 X85.084 Y94.505 E25.89029
G1 X79.505 Y100.084 E26.52391
G1 X79.156 Y99.611 E26.57109
G1 X84.611 Y94.156 E27.19065
G1 X84.068 Y93.878 E27.23968
G1 X78.875 Y99.071 E27.82944
G1 X78.680 Y98.444 E27.88212
G1 X83.444 Y93.680 E28.42326
G1 X82.714 Y93.589 E28.48238
G1 X78.589 Y97.713 E28.95085
G1 X78.677 Y96.804 E29.02421
G1 X81.804 Y93.677 E29.37937
G1 X80.221 Y94.438 F7800.000
G1 X79.423 Y95.237 E29.47008 F1200.000
G1 Z0.900 F7800.000
G1 X83.126 Y101.727 F7800.000
G1 X82.916 Y101.782 E29.48690 F900.000
G1 X81.955 Y101.721 E29.56156
G1 X81.714 Y101.683 E29.58049
G1 X81.174 Y101.544 E29.62375
G1 X80.944 Y101.462 E29.64267
G1 X80.450 Y101.229 E29.68503
G1 X79.989 Y100.937 E29.72738
G1 X79.796 Y100.787 E29.74630
G1 X79.389 Y100.405 E29.78957
G1 X79.228 Y100.222 E29.80850
G1 X78.900 Y99.771 E29.85175
G1 X78.776 Y99.561 E29.87068
G1 X78.538 Y99.056 E29.91394
G1 X78.456 Y98.826 E29.93286
G1 X78.317 Y98.286 E29.97613
G1 X78.279 Y98.045 E29.99505
G1 X78.244 Y97.500 E30.03740
G1 X78.279 Y96.955 E30.07975
G1 X78.317 Y96.713 E30.09875
G1 X78.444 Y96.214 E30.13871
G1 X78.540 Y95.941 E30.16109
G1 X78.771 Y95.450 E30.20322
G1 X79.063 Y94.989 E30.24557
G1 X79.213 Y94.796 E30.26449
G1 X79.595 Y94.389 E30.30775
G1 X79.778 Y94.228 E30.32668
G1 X80.229 Y93.900 E30.36994
G1 X80.439 Y93.776 E30.38886
G1 X80.944 Y93.538 E30.43213
G1 X81.174 Y93.456 E30.45104
G1 X81.703 Y93.320 E30.49340
G1 X82.242 Y93.252 E30.53553
G1 X82.530 Y93.245 E30.55791
G1 X83.032 Y93.278 E30.59696
G1 X83.570 Y93.380 E30.63938 F900.000
G1 X83.804 Y93.448 E30.65831
G1 X84.323 Y93.654 E30.70156
G1 X84.540 Y93.765 E30.72049
G1 X85.011 Y94.063 E30.76375
G1 X85.204 Y94.213 E30.78267
G1 X85.611 Y94.595 E30.82594
G1 X85.772 Y94.778 E30.84487
G1 X86.100 Y95.229 E30.88812
G1 X86.224 Y95.439 E30.90705
G1 X86.462 Y95.944 E30.95031
G1 X86.544 Y96.174 E30.96923
G1 X86.683 Y96.714 E31.01249
G1 X86.721 Y96.955 E31.03142
G1 X86.782 Y97.916 E31.10608
G1 X86.545 Y98.825 E31.17895
G1 X86.462 Y99.056 E31.19798
G1 X86.229 Y99.550 E31.24034
G1 X85.943 Y100.001 E31.28177
G1 X85.602 Y100.413 E31.32322
G1 X85.204 Y100.787 E31.36558
G1 X85.011 Y100.937 E31.38450
G1 X84.550 Y101.229 E31.42685
G1 X84.056 Y101.462 E31.46921
G1 X83.825 Y101.545 E31.48823
G1 X83.198 Y101.708 E31.53847
G1 X83.250 Y102.204 F7800.000
G1 X83.250 Y157.250 E34.77162 F1800.000
G1 X82.750 Y157.250 E34.80099
G1 X82.750 Y102.265 E38.03056
G1 X81.901 Y102.212 E38.08053
G1 X81.614 Y102.166 E38.09760
G1 X81.028 Y102.016 E38.13309
G1 X80.755 Y101.918 E38.15015
G1 X80.212 Y101.662 E38.18542
G1 X79.705 Y101.340 E38.22068
G1 X79.475 Y101.162 E38.23775
G1 X79.035 Y100.749 E38.27325
G1 X78.843 Y100.531 E38.29031
G1 X78.488 Y100.042 E38.32581
G1 X78.340 Y99.792 E38.34287
G1 X78.082 Y99.245 E38.37837
G1 X77.984 Y98.972 E38.39543
G1 X77.834 Y98.386 E38.43092
G1 X77.788 Y98.099 E38.44799
G1 X77.750 Y97.500 E38.48325
G1 X77.788 Y96.901 E38.51852
G1 X77.834 Y96.614 E38.53560
G1 X77.972 Y96.071 E38.56848
G1 X78.083 Y95.754 E38.58819
G1 X78.338 Y95.212 E38.62340
G1 X78.660 Y94.705 E38.65866
G1 X78.838 Y94.475 E38.67573
G1 X79.251 Y94.035 E38.71123
G1 X79.469 Y93.843 E38.72829
G1 X79.958 Y93.488 E38.76379
G1 X80.208 Y93.340 E38.78085
G1 X80.755 Y93.082 E38.81635
G1 X81.028 Y92.984 E38.83341
G1 X81.610 Y92.835 E38.86867
G1 X82.205 Y92.760 E38.90388
G1 X82.540 Y92.752 E38.92360
G1 X83.095 Y92.788 E38.95625
G1 X83.685 Y92.900 E38.99152
G1 X83.964 Y92.981 E39.00859
G1 X84.526 Y93.204 E39.04409
G1 X84.785 Y93.336 E39.06115
G1 X85.295 Y93.660 E39.09664
G1 X85.525 Y93.838 E39.11371
G1 X85.965 Y94.251 E39.14921
G1 X86.157 Y94.469 E39.16627
G1 X86.512 Y94.958 E39.20177
G1 X86.660 Y95.208 E39.21883
G1 X86.918 Y95.755 E39.25433
G1 X87.016 Y96.028 E39.27139
G1 X87.166 Y96.614 E39.30689
G1 X87.212 Y96.901 E39.32395
G1 X87.265 Y97.750 E39.37393
G1 X172.250 Y97.750 E44.36556
G1 X172.250 Y98.250 E44.39493
G1 X87.204 Y98.250 E49.39015
G1 X87.016 Y98.971 E49.43392
G1 X86.918 Y99.245 E49.45101
G1 X86.662 Y99.788 E49.48627
G1 X86.342 Y100.292 E49.52130
G1 X85.962 Y100.751 E49.55634
G1 X85.525 Y101.162 E49.59160
G1 X85.295 Y101.340 E49.60867
G1 X84.788 Y101.662 E49.64393
G1 X84.245 Y101.918 E49.67920
G1 X83.971 Y102.016 E49.69628
G1 X83.323 Y102.185 E49.73565
G1 X82.752 Y102.247 F7800.000
G1 X80.237 Y100.577 F7800.000
G1 X79.438 Y99.779 E49.82637 F1200.000
G1 X78.677 Y98.196 F7800.000
G1 X81.804 Y101.323 E50.18153 F1200.000
G1 X82.726 Y101.424 E50.25604
G1 X78.589 Y97.287 E50.72595
G1 X78.679 Y96.555 E50.78514
G1 X83.446 Y101.322 E51.32654
G1 X84.071 Y101.125 E51.37916
G1 X78.875 Y95.929 E51.96931
